(1001)
(T2  D=3.175 CR=0. - ZMIN=-3.175 - FLAT END MILL)
G0 G90 G94 G17
G21
G53 G0 Z0.

(BORE2)
M5
T2
S16500 M3
G4 P4.
G55
G0 X-0.757 Y-2.473
Z15.
Z2.
G1 Z0.317 F1016.
X-0.76 Y-2.466 Z0.247
X-0.769 Y-2.444 Z0.18
X-0.784 Y-2.409 Z0.12
X-0.804 Y-2.363 Z0.069
X-0.828 Y-2.308 Z0.031
X-0.855 Y-2.247 Z0.008
X-0.884 Y-2.182 Z0.
X-0.947 Y-2.036
G3 X-1.365 Y-1.872 I-0.291 J-0.127
X-0.635 Y-3.545 Z-0.1 I0.365 J-0.836
X-1.365 Y-1.872 Z-0.2 I-0.365 J0.836
X-0.635 Y-3.545 Z-0.3 I0.365 J-0.836
X-1.365 Y-1.872 Z-0.4 I-0.365 J0.836
X-0.635 Y-3.545 Z-0.5 I0.365 J-0.836
X-1.365 Y-1.872 Z-0.6 I-0.365 J0.836
X-0.635 Y-3.545 Z-0.7 I0.365 J-0.836
X-1.365 Y-1.872 Z-0.8 I-0.365 J0.836
X-0.635 Y-3.545 Z-0.9 I0.365 J-0.836
X-1.365 Y-1.872 Z-1. I-0.365 J0.836
X-0.635 Y-3.545 Z-1.1 I0.365 J-0.836
X-1.365 Y-1.872 Z-1.2 I-0.365 J0.836
X-0.635 Y-3.545 Z-1.3 I0.365 J-0.836
X-1.365 Y-1.872 Z-1.4 I-0.365 J0.836
X-0.635 Y-3.545 Z-1.5 I0.365 J-0.836
X-1.365 Y-1.872 Z-1.6 I-0.365 J0.836
X-0.635 Y-3.545 Z-1.7 I0.365 J-0.836
X-1.365 Y-1.872 Z-1.8 I-0.365 J0.836
X-0.635 Y-3.545 Z-1.9 I0.365 J-0.836
X-1.365 Y-1.872 Z-2. I-0.365 J0.836
X-0.635 Y-3.545 Z-2.1 I0.365 J-0.836
X-1.365 Y-1.872 Z-2.2 I-0.365 J0.836
X-0.635 Y-3.545 Z-2.3 I0.365 J-0.836
X-1.365 Y-1.872 Z-2.4 I-0.365 J0.836
X-0.635 Y-3.545 Z-2.5 I0.365 J-0.836
X-1.365 Y-1.872 I-0.365 J0.836
X-0.635 Y-3.545 I0.365 J-0.836
X-0.471 Y-3.127 I-0.127 J0.291
G1 X-0.535 Y-2.982
X-0.563 Y-2.917 Z-2.492
X-0.59 Y-2.855 Z-2.469
X-0.614 Y-2.8 Z-2.431
X-0.634 Y-2.754 Z-2.38
X-0.649 Y-2.719 Z-2.32
X-0.658 Y-2.698 Z-2.253
X-0.662 Y-2.691 Z-2.182
G0 Z5.
X3.764 Y2.535
Z2.
G1 Z0.317 F1016.
X3.757 Y2.532 Z0.247
X3.735 Y2.522 Z0.18
X3.701 Y2.507 Z0.12
X3.655 Y2.487 Z0.069
X3.599 Y2.463 Z0.031
X3.538 Y2.436 Z0.008
X3.473 Y2.408 Z0.
X3.328 Y2.344
G3 X3.164 Y1.926 I0.127 J-0.291
X4.836 Y2.656 Z-0.1 I0.836 J0.365
X3.164 Y1.926 Z-0.2 I-0.836 J-0.365
X4.836 Y2.656 Z-0.3 I0.836 J0.365
X3.164 Y1.926 Z-0.4 I-0.836 J-0.365
X4.836 Y2.656 Z-0.5 I0.836 J0.365
X3.164 Y1.926 Z-0.6 I-0.836 J-0.365
X4.836 Y2.656 Z-0.7 I0.836 J0.365
X3.164 Y1.926 Z-0.8 I-0.836 J-0.365
X4.836 Y2.656 Z-0.9 I0.836 J0.365
X3.164 Y1.926 Z-1. I-0.836 J-0.365
X4.836 Y2.656 Z-1.1 I0.836 J0.365
X3.164 Y1.926 Z-1.2 I-0.836 J-0.365
X4.836 Y2.656 Z-1.3 I0.836 J0.365
X3.164 Y1.926 Z-1.4 I-0.836 J-0.365
X4.836 Y2.656 Z-1.5 I0.836 J0.365
X3.164 Y1.926 Z-1.6 I-0.836 J-0.365
X4.836 Y2.656 Z-1.7 I0.836 J0.365
X3.164 Y1.926 Z-1.8 I-0.836 J-0.365
X4.836 Y2.656 Z-1.9 I0.836 J0.365
X3.164 Y1.926 Z-2. I-0.836 J-0.365
X4.836 Y2.656 Z-2.1 I0.836 J0.365
X3.164 Y1.926 Z-2.2 I-0.836 J-0.365
X4.836 Y2.656 Z-2.3 I0.836 J0.365
X3.164 Y1.926 Z-2.4 I-0.836 J-0.365
X4.365 Y1.455 Z-2.45 I0.836 J0.365
X4.836 Y2.656 Z-2.5 I-0.365 J0.836
X3.164 Y1.926 I-0.836 J-0.365
X4.836 Y2.656 I0.836 J0.365
X4.418 Y2.82 I-0.291 J-0.127
G1 X4.273 Y2.757
X4.208 Y2.729 Z-2.492
X4.147 Y2.702 Z-2.469
X4.091 Y2.678 Z-2.431
X4.045 Y2.657 Z-2.38
X4.011 Y2.642 Z-2.32
X3.989 Y2.633 Z-2.253
X3.982 Y2.63 Z-2.182
G0 Z5.
X-1.317 Y2.173
Z2.
G1 Z0.317 F1016.
G19 G2 Y1.855 Z0. J-0.317 K0.
G1 Y1.696
G17 G3 X-1. Y1.379 I0.317 J0.
Y3.204 Z-0.1 I0. J0.913
Y1.379 Z-0.2 I0. J-0.913
Y3.204 Z-0.3 I0. J0.913
Y1.379 Z-0.4 I0. J-0.913
Y3.204 Z-0.5 I0. J0.913
Y1.379 Z-0.6 I0. J-0.912
Y3.204 Z-0.7 I0. J0.912
Y1.379 Z-0.8 I0. J-0.912
Y3.204 Z-0.9 I0. J0.912
Y1.379 Z-1. I0. J-0.912
Y3.204 Z-1.1 I0. J0.912
Y1.379 Z-1.2 I0. J-0.912
Y3.204 Z-1.3 I0. J0.912
Y1.379 Z-1.4 I0. J-0.912
Y3.204 Z-1.5 I0. J0.912
Y1.379 Z-1.6 I0. J-0.912
Y3.204 Z-1.7 I0. J0.912
Y1.379 Z-1.8 I0. J-0.912
Y3.204 Z-1.9 I0. J0.912
Y1.379 Z-2. I0. J-0.912
Y3.204 Z-2.1 I0. J0.912
Y1.379 Z-2.2 I0. J-0.912
Y3.204 Z-2.3 I0. J0.912
Y1.379 Z-2.4 I0. J-0.912
Y3.204 Z-2.5 I0. J0.912
Y1.379 I0. J-0.912
Y3.204 I0. J0.912
X-1.317 Y2.886 I0. J-0.317
G1 Y2.728
G19 G2 Y2.41 Z-2.182 J0. K0.318
G0 Z5.
Y2.173
Z2.
G1 Z0.317 F1016.
G2 Y1.855 Z0. J-0.317 K0.
G1 Y1.696
G17 G3 X-1. Y1.379 I0.317 J0.
Y3.204 Z-0.1 I0. J0.913
Y1.379 Z-0.2 I0. J-0.913
Y3.204 Z-0.3 I0. J0.913
Y1.379 Z-0.4 I0. J-0.913
Y3.204 Z-0.5 I0. J0.913
Y1.379 Z-0.6 I0. J-0.912
Y3.204 Z-0.7 I0. J0.912
Y1.379 Z-0.8 I0. J-0.912
Y3.204 Z-0.9 I0. J0.912
Y1.379 Z-1. I0. J-0.912
Y3.204 Z-1.1 I0. J0.912
Y1.379 Z-1.2 I0. J-0.912
Y3.204 Z-1.3 I0. J0.912
Y1.379 Z-1.4 I0. J-0.912
Y3.204 Z-1.5 I0. J0.912
Y1.379 Z-1.6 I0. J-0.912
Y3.204 Z-1.7 I0. J0.912
Y1.379 Z-1.8 I0. J-0.912
Y3.204 Z-1.9 I0. J0.912
Y1.379 Z-2. I0. J-0.912
Y3.204 Z-2.1 I0. J0.912
Y1.379 Z-2.2 I0. J-0.912
Y3.204 Z-2.3 I0. J0.912
Y1.379 Z-2.4 I0. J-0.912
Y3.204 Z-2.5 I0. J0.912
Y1.379 I0. J-0.912
Y3.204 I0. J0.912
X-1.317 Y2.886 I0. J-0.317
G1 Y2.728
G19 G2 Y2.41 Z-2.182 J0. K0.318
G0 Z5.
Y2.173
Z2.
G1 Z0.317 F1016.
G2 Y1.855 Z0. J-0.317 K0.
G1 Y1.696
G17 G3 X-1. Y1.379 I0.317 J0.
Y3.204 Z-0.1 I0. J0.913
Y1.379 Z-0.2 I0. J-0.913
Y3.204 Z-0.3 I0. J0.913
Y1.379 Z-0.4 I0. J-0.913
Y3.204 Z-0.5 I0. J0.913
Y1.379 Z-0.6 I0. J-0.912
Y3.204 Z-0.7 I0. J0.912
Y1.379 Z-0.8 I0. J-0.912
Y3.204 Z-0.9 I0. J0.912
Y1.379 Z-1. I0. J-0.912
Y3.204 Z-1.1 I0. J0.912
Y1.379 Z-1.2 I0. J-0.912
Y3.204 Z-1.3 I0. J0.912
Y1.379 Z-1.4 I0. J-0.912
Y3.204 Z-1.5 I0. J0.912
Y1.379 Z-1.6 I0. J-0.912
Y3.204 Z-1.7 I0. J0.912
Y1.379 Z-1.8 I0. J-0.912
Y3.204 Z-1.9 I0. J0.912
Y1.379 Z-2. I0. J-0.912
Y3.204 Z-2.1 I0. J0.912
Y1.379 Z-2.2 I0. J-0.912
Y3.204 Z-2.3 I0. J0.912
Y1.379 Z-2.4 I0. J-0.912
Y3.204 Z-2.5 I0. J0.912
Y1.379 I0. J-0.912
Y3.204 I0. J0.912
X-1.317 Y2.886 I0. J-0.317
G1 Y2.728
G19 G2 Y2.41 Z-2.182 J0. K0.318
G0 Z5.
X-1.156 Y2.294
Z-0.817
G1 Z-2.5 F1016.
Y2.135
X-1.149 Y2.087
X-1.126 Y2.043
X-1.092 Y2.009
X-1.048 Y1.986
X-1. Y1.979
G17 G3 Y2.604 Z-2.6 I0. J0.313
Y1.979 Z-2.7 I0. J-0.312
Y2.604 Z-2.8 I0. J0.312
Y1.979 Z-2.9 I0. J-0.312
Y2.604 Z-3. I0. J0.312
Y1.979 Z-3.1 I0. J-0.312
X-0.779 Y2.512 Z-3.175 I0. J0.312
X-1.221 Y2.07 I-0.221 J-0.221
X-0.779 Y2.512 I0.221 J0.221
G1 X-0.819 Y2.541
X-0.865 Y2.556
X-0.914
X-0.96 Y2.541
X-1. Y2.512
X-1.112 Y2.4
G0 Z5.
X-1.317 Y2.173
Z2.
G1 Z0.317 F1016.
G19 G2 Y1.855 Z0. J-0.317 K0.
G1 Y1.696
G17 G3 X-1. Y1.379 I0.317 J0.
Y3.204 Z-0.1 I0. J0.913
Y1.379 Z-0.2 I0. J-0.913
Y3.204 Z-0.3 I0. J0.913
Y1.379 Z-0.4 I0. J-0.913
Y3.204 Z-0.5 I0. J0.913
Y1.379 Z-0.6 I0. J-0.912
Y3.204 Z-0.7 I0. J0.912
Y1.379 Z-0.8 I0. J-0.912
Y3.204 Z-0.9 I0. J0.912
Y1.379 Z-1. I0. J-0.912
Y3.204 Z-1.1 I0. J0.912
Y1.379 Z-1.2 I0. J-0.912
Y3.204 Z-1.3 I0. J0.912
Y1.379 Z-1.4 I0. J-0.912
Y3.204 Z-1.5 I0. J0.912
Y1.379 Z-1.6 I0. J-0.912
Y3.204 Z-1.7 I0. J0.912
Y1.379 Z-1.8 I0. J-0.912
Y3.204 Z-1.9 I0. J0.912
Y1.379 Z-2. I0. J-0.912
Y3.204 Z-2.1 I0. J0.912
Y1.379 Z-2.2 I0. J-0.912
Y3.204 Z-2.3 I0. J0.912
Y1.379 Z-2.4 I0. J-0.912
Y3.204 Z-2.5 I0. J0.912
Y1.379 I0. J-0.912
Y3.204 I0. J0.912
X-1.317 Y2.886 I0. J-0.317
G1 Y2.728
G19 G2 Y2.41 Z-2.182 J0. K0.318
G0 Z5.
X-5.764 Y2.048
Z2.
G1 Z0.317 F1016.
X-5.757 Y2.051 Z0.247
X-5.735 Y2.06 Z0.18
X-5.701 Y2.076 Z0.12
X-5.655 Y2.096 Z0.069
X-5.599 Y2.12 Z0.031
X-5.538 Y2.147 Z0.008
X-5.473 Y2.175 Z0.
X-5.328 Y2.238
G17 G3 X-5.164 Y2.656 I-0.127 J0.291
X-6.836 Y1.926 Z-0.1 I-0.836 J-0.365
X-5.164 Y2.656 Z-0.2 I0.836 J0.365
X-6.836 Y1.926 Z-0.3 I-0.836 J-0.365
X-5.164 Y2.656 Z-0.4 I0.836 J0.365
X-6.836 Y1.926 Z-0.5 I-0.836 J-0.365
X-5.164 Y2.656 Z-0.6 I0.836 J0.365
X-6.836 Y1.926 Z-0.7 I-0.836 J-0.365
X-5.164 Y2.656 Z-0.8 I0.836 J0.365
X-6.836 Y1.926 Z-0.9 I-0.836 J-0.365
X-5.164 Y2.656 Z-1. I0.836 J0.365
X-6.836 Y1.926 Z-1.1 I-0.836 J-0.365
X-5.164 Y2.656 Z-1.2 I0.836 J0.365
X-6.836 Y1.926 Z-1.3 I-0.836 J-0.365
X-5.164 Y2.656 Z-1.4 I0.836 J0.365
X-6.836 Y1.926 Z-1.5 I-0.836 J-0.365
X-5.164 Y2.656 Z-1.6 I0.836 J0.365
X-6.836 Y1.926 Z-1.7 I-0.836 J-0.365
X-5.164 Y2.656 Z-1.8 I0.836 J0.365
X-6.836 Y1.926 Z-1.9 I-0.836 J-0.365
X-5.164 Y2.656 Z-2. I0.836 J0.365
X-6.836 Y1.926 Z-2.1 I-0.836 J-0.365
X-5.164 Y2.656 Z-2.2 I0.836 J0.365
X-6.836 Y1.926 Z-2.3 I-0.836 J-0.365
X-5.164 Y2.656 Z-2.4 I0.836 J0.365
X-6.836 Y1.926 Z-2.5 I-0.836 J-0.365
X-5.164 Y2.656 I0.836 J0.365
X-6.836 Y1.926 I-0.836 J-0.365
X-6.418 Y1.762 I0.291 J0.127
G1 X-6.273 Y1.826
X-6.208 Y1.854 Z-2.492
X-6.147 Y1.881 Z-2.469
X-6.091 Y1.905 Z-2.431
X-6.045 Y1.925 Z-2.38
X-6.011 Y1.94 Z-2.32
X-5.989 Y1.95 Z-2.253
X-5.982 Y1.953 Z-2.182
G0 Z5.
X-1.243 Y7.055
Z2.
G1 Z0.317 F1016.
X-1.24 Y7.048 Z0.247
X-1.231 Y7.027 Z0.18
X-1.216 Y6.992 Z0.12
X-1.196 Y6.946 Z0.069
X-1.172 Y6.891 Z0.031
X-1.145 Y6.829 Z0.008
X-1.116 Y6.764 Z0.
X-1.053 Y6.619
G3 X-0.635 Y6.455 I0.291 J0.127
X-1.365 Y8.128 Z-0.1 I-0.365 J0.836
X-0.635 Y6.455 Z-0.2 I0.365 J-0.836
X-1.365 Y8.128 Z-0.3 I-0.365 J0.836
X-0.635 Y6.455 Z-0.4 I0.365 J-0.836
X-1.365 Y8.128 Z-0.5 I-0.365 J0.836
X-0.635 Y6.455 Z-0.6 I0.365 J-0.836
X-1.365 Y8.128 Z-0.7 I-0.365 J0.836
X-0.635 Y6.455 Z-0.8 I0.365 J-0.836
X-1.365 Y8.128 Z-0.9 I-0.365 J0.836
X-0.635 Y6.455 Z-1. I0.365 J-0.836
X-1.365 Y8.128 Z-1.1 I-0.365 J0.836
X-0.635 Y6.455 Z-1.2 I0.365 J-0.836
X-1.365 Y8.128 Z-1.3 I-0.365 J0.836
X-0.635 Y6.455 Z-1.4 I0.365 J-0.836
X-1.365 Y8.128 Z-1.5 I-0.365 J0.836
X-0.635 Y6.455 Z-1.6 I0.365 J-0.836
X-1.365 Y8.128 Z-1.7 I-0.365 J0.836
X-0.635 Y6.455 Z-1.8 I0.365 J-0.836
X-1.365 Y8.128 Z-1.9 I-0.365 J0.836
X-0.635 Y6.455 Z-2. I0.365 J-0.836
X-1.365 Y8.128 Z-2.1 I-0.365 J0.836
X-0.635 Y6.455 Z-2.2 I0.365 J-0.836
X-1.365 Y8.128 Z-2.3 I-0.365 J0.836
X-0.635 Y6.455 Z-2.4 I0.365 J-0.836
X-1.365 Y8.128 Z-2.5 I-0.365 J0.836
X-0.635 Y6.455 I0.365 J-0.836
X-1.365 Y8.128 I-0.365 J0.836
X-1.529 Y7.71 I0.127 J-0.291
G1 X-1.465 Y7.564
X-1.437 Y7.499 Z-2.492
X-1.41 Y7.438 Z-2.469
X-1.386 Y7.383 Z-2.431
X-1.366 Y7.337 Z-2.38
X-1.351 Y7.302 Z-2.32
X-1.342 Y7.28 Z-2.253
X-1.338 Y7.273 Z-2.182
G0 Z15.

(CONTOUR3)
G55
G0 X-10.941 Y0.908
Z15.
Z1.068
G1 Z-0.2 F1016.
G3 X-10.469 Y1.258 I0.163 J0.272
G1 X-10.491 Y1.366
X-10.54 Y1.65
X-10.56 Y1.793
X-10.57 Y1.935
X-10.578 Y2.078
X-10.586 Y2.22
X-10.587 Y2.291
X-10.586 Y2.362
X-10.578 Y2.505
X-10.57 Y2.647
X-10.56 Y2.79
X-10.54 Y2.932
X-10.491 Y3.217
X-10.469 Y3.325
X-10.461 Y3.359
X-10.42 Y3.502
X-10.38 Y3.644
X-10.337 Y3.786
X-10.327 Y3.815
X-10.282 Y3.929
X-10.185 Y4.164
X-10.164 Y4.214
X-10.132 Y4.285
X-10.095 Y4.356
X-9.938 Y4.641
X-9.9 Y4.707
X-9.851 Y4.783
X-9.757 Y4.915
X-9.649 Y5.068
X-9.615 Y5.115
X-9.537 Y5.21
X-9.33 Y5.443
X-9.283 Y5.495
X-9.188 Y5.588
X-8.974 Y5.78
X-8.903 Y5.843
X-8.801 Y5.922
X-8.761 Y5.951
X-8.601 Y6.065
X-8.476 Y6.153
X-8.388 Y6.207
X-8.334 Y6.237
X-8.132 Y6.35
X-8.049 Y6.395
X-7.978 Y6.431
X-7.906 Y6.462
X-7.622 Y6.58
X-7.55 Y6.609
X-7.479 Y6.633
X-7.475 Y6.634
X-7.337 Y6.675
X-7.194 Y6.717
X-7.052 Y6.756
X-6.955 Y6.777
X-6.91 Y6.785
X-6.625 Y6.834
X-6.482 Y6.86
X-6.398 Y6.875
X-6.396
X-6.269 Y6.914
X-6.268 Y6.915
X-6.146 Y6.969
X-6.144 Y6.97
X-6.031 Y7.038
X-6.03 Y7.039
X-5.925 Y7.121
X-5.924 Y7.122
X-5.831 Y7.215
X-5.83 Y7.216
X-5.748 Y7.321
X-5.747 Y7.323
X-5.679 Y7.435
X-5.678 Y7.438
X-5.623 Y7.559
Y7.56
X-5.584 Y7.687
X-5.583 Y7.689
X-5.568 Y7.774
X-5.543 Y7.916
X-5.493 Y8.201
X-5.486 Y8.247
X-5.465 Y8.343
X-5.425 Y8.486
X-5.384 Y8.628
X-5.343 Y8.767
X-5.342 Y8.77
X-5.317 Y8.842
X-5.289 Y8.913
X-5.17 Y9.198
X-5.139 Y9.269
X-5.104 Y9.34
X-5.058 Y9.423
X-4.946 Y9.625
X-4.916 Y9.679
X-4.862 Y9.767
X-4.774 Y9.893
X-4.66 Y10.052
X-4.631 Y10.092
X-4.552 Y10.194
X-4.489 Y10.265
X-4.297 Y10.479
X-4.204 Y10.574
X-4.151 Y10.622
X-3.919 Y10.828
X-3.824 Y10.906
X-3.777 Y10.941
X-3.624 Y11.049
X-3.492 Y11.142
X-3.416 Y11.191
X-3.35 Y11.229
X-3.065 Y11.386
X-2.994 Y11.423
X-2.922 Y11.455
X-2.873 Y11.476
X-2.638 Y11.573
X-2.524 Y11.618
X-2.495 Y11.628
X-2.353 Y11.671
X-2.21 Y11.712
X-2.068 Y11.752
X-2.034 Y11.761
X-1.926 Y11.783
X-1.641 Y11.831
X-1.498 Y11.852
X-1.356 Y11.861
X-1.214 Y11.869
X-1.071 Y11.877
X-1. Y11.879
X-0.929 Y11.877
X-0.786 Y11.869
X-0.644 Y11.861
X-0.502 Y11.852
X-0.359 Y11.831
X-0.074 Y11.783
X0.034 Y11.761
X0.068 Y11.752
X0.21 Y11.712
X0.353 Y11.671
X0.495 Y11.628
X0.524 Y11.618
X0.638 Y11.573
X0.873 Y11.476
X0.922 Y11.455
X0.994 Y11.423
X1.065 Y11.386
X1.35 Y11.229
X1.416 Y11.191
X1.492 Y11.142
X1.624 Y11.049
X1.777 Y10.941
X1.824 Y10.906
X1.919 Y10.828
X2.151 Y10.622
X2.204 Y10.574
X2.297 Y10.479
X2.489 Y10.265
X2.552 Y10.194
X2.631 Y10.092
X2.66 Y10.052
X2.774 Y9.893
X2.862 Y9.767
X2.916 Y9.679
X2.946 Y9.625
X3.058 Y9.423
X3.104 Y9.34
X3.139 Y9.269
X3.17 Y9.198
X3.289 Y8.913
X3.317 Y8.842
X3.342 Y8.77
X3.343 Y8.767
X3.384 Y8.628
X3.425 Y8.486
X3.465 Y8.343
X3.486 Y8.247
X3.493 Y8.201
X3.543 Y7.916
X3.568 Y7.774
X3.583 Y7.689
X3.584 Y7.687
X3.623 Y7.56
Y7.559
X3.678 Y7.438
X3.679 Y7.435
X3.747 Y7.323
X3.748 Y7.321
X3.83 Y7.216
X3.831 Y7.215
X3.924 Y7.122
X3.925 Y7.121
X4.03 Y7.039
X4.031 Y7.038
X4.144 Y6.97
X4.146 Y6.969
X4.268 Y6.915
X4.269 Y6.914
X4.396 Y6.875
X4.398
X4.482 Y6.86
X4.625 Y6.834
X4.91 Y6.785
X4.955 Y6.777
X5.052 Y6.756
X5.194 Y6.717
X5.337 Y6.675
X5.475 Y6.634
X5.479 Y6.633
X5.55 Y6.609
X5.622 Y6.58
X5.906 Y6.462
X5.978 Y6.431
X6.049 Y6.395
X6.132 Y6.35
X6.334 Y6.237
X6.388 Y6.207
X6.476 Y6.153
X6.601 Y6.065
X6.761 Y5.951
X6.801 Y5.922
X6.903 Y5.843
X6.974 Y5.78
X7.188 Y5.588
X7.283 Y5.495
X7.33 Y5.443
X7.537 Y5.21
X7.615 Y5.115
X7.649 Y5.068
X7.757 Y4.915
X7.851 Y4.783
X7.9 Y4.707
X7.938 Y4.641
X8.095 Y4.356
X8.132 Y4.285
X8.164 Y4.214
X8.185 Y4.164
X8.282 Y3.929
X8.327 Y3.815
X8.337 Y3.786
X8.38 Y3.644
X8.42 Y3.502
X8.461 Y3.359
X8.469 Y3.325
X8.491 Y3.217
X8.54 Y2.932
X8.56 Y2.79
X8.57 Y2.647
X8.578 Y2.505
X8.586 Y2.362
X8.587 Y2.291
X8.586 Y2.22
X8.578 Y2.078
X8.57 Y1.935
X8.56 Y1.793
X8.54 Y1.65
X8.491 Y1.366
X8.469 Y1.258
X8.461 Y1.223
X8.42 Y1.081
X8.38 Y0.939
X8.337 Y0.796
X8.327 Y0.768
X8.282 Y0.654
X8.185 Y0.418
X8.164 Y0.369
X8.132 Y0.298
X8.095 Y0.227
X7.938 Y-0.058
X7.9 Y-0.124
X7.851 Y-0.201
X7.757 Y-0.332
X7.649 Y-0.485
X7.615 Y-0.532
X7.537 Y-0.628
X7.33 Y-0.86
X7.283 Y-0.913
X7.188 Y-1.005
X6.974 Y-1.197
X6.903 Y-1.26
X6.801 Y-1.34
X6.761 Y-1.369
X6.601 Y-1.482
X6.476 Y-1.57
X6.388 Y-1.625
X6.334 Y-1.655
X6.132 Y-1.767
X6.049 Y-1.813
X5.978 Y-1.848
X5.906 Y-1.879
X5.622 Y-1.998
X5.55 Y-2.026
X5.479 Y-2.051
X5.475 Y-2.052
X5.337 Y-2.093
X5.194 Y-2.134
X5.052 Y-2.174
X4.955 Y-2.194
X4.91 Y-2.202
X4.625 Y-2.252
X4.482 Y-2.277
X4.398 Y-2.292
X4.396 Y-2.293
X4.269 Y-2.332
X4.268
X4.146 Y-2.386
X4.144 Y-2.388
X4.031 Y-2.455
X4.03 Y-2.457
X3.925 Y-2.538
X3.924 Y-2.54
X3.831 Y-2.632
X3.83 Y-2.634
X3.748 Y-2.738
X3.747 Y-2.74
X3.679 Y-2.853
X3.678 Y-2.855
X3.623 Y-2.976
Y-2.978
X3.584 Y-3.104
X3.583 Y-3.106
X3.568 Y-3.191
X3.543 Y-3.333
X3.493 Y-3.618
X3.486 Y-3.664
X3.465 Y-3.761
X3.425 Y-3.903
X3.384 Y-4.045
X3.343 Y-4.184
X3.342 Y-4.188
X3.317 Y-4.259
X3.289 Y-4.33
X3.17 Y-4.615
X3.139 Y-4.686
X3.104 Y-4.757
X3.058 Y-4.84
X2.946 Y-5.042
X2.916 Y-5.096
X2.862 Y-5.185
X2.774 Y-5.31
X2.66 Y-5.469
X2.631 Y-5.51
X2.552 Y-5.612
X2.489 Y-5.683
X2.297 Y-5.897
X2.204 Y-5.991
X2.151 Y-6.039
X1.919 Y-6.246
X1.824 Y-6.324
X1.777 Y-6.358
X1.624 Y-6.466
X1.492 Y-6.559
X1.416 Y-6.609
X1.35 Y-6.647
X1.065 Y-6.803
X0.994 Y-6.84
X0.922 Y-6.873
X0.873 Y-6.893
X0.638 Y-6.991
X0.524 Y-7.036
X0.495 Y-7.046
X0.353 Y-7.088
X0.21 Y-7.129
X0.068 Y-7.17
X0.034 Y-7.178
X-0.074 Y-7.2
X-0.359 Y-7.248
X-0.502 Y-7.269
X-0.644 Y-7.279
X-0.786 Y-7.287
X-0.929 Y-7.295
X-1. Y-7.296
X-1.071 Y-7.295
X-1.214 Y-7.287
X-1.356 Y-7.279
X-1.498 Y-7.269
X-1.641 Y-7.248
X-1.926 Y-7.2
X-2.034 Y-7.178
X-2.068 Y-7.17
X-2.21 Y-7.129
X-2.353 Y-7.088
X-2.495 Y-7.046
X-2.524 Y-7.036
X-2.638 Y-6.991
X-2.873 Y-6.893
X-2.922 Y-6.873
X-2.994 Y-6.84
X-3.065 Y-6.803
X-3.35 Y-6.647
X-3.416 Y-6.609
X-3.492 Y-6.559
X-3.624 Y-6.466
X-3.777 Y-6.358
X-3.824 Y-6.324
X-3.919 Y-6.246
X-4.151 Y-6.039
X-4.204 Y-5.991
X-4.297 Y-5.897
X-4.489 Y-5.683
X-4.552 Y-5.612
X-4.631 Y-5.51
X-4.66 Y-5.469
X-4.774 Y-5.31
X-4.862 Y-5.185
X-4.916 Y-5.096
X-4.946 Y-5.042
X-5.058 Y-4.84
X-5.104 Y-4.757
X-5.139 Y-4.686
X-5.17 Y-4.615
X-5.289 Y-4.33
X-5.317 Y-4.259
X-5.342 Y-4.188
X-5.343 Y-4.184
X-5.384 Y-4.045
X-5.425 Y-3.903
X-5.465 Y-3.761
X-5.486 Y-3.664
X-5.493 Y-3.618
X-5.543 Y-3.333
X-5.568 Y-3.191
X-5.583 Y-3.106
X-5.584 Y-3.104
X-5.623 Y-2.978
Y-2.976
X-5.678 Y-2.855
X-5.679 Y-2.853
X-5.747 Y-2.74
X-5.748 Y-2.738
X-5.83 Y-2.634
X-5.831 Y-2.632
X-5.924 Y-2.54
X-5.925 Y-2.538
X-6.03 Y-2.457
X-6.031 Y-2.455
X-6.144 Y-2.388
X-6.146 Y-2.386
X-6.268 Y-2.332
X-6.269
X-6.396 Y-2.293
X-6.398 Y-2.292
X-6.482 Y-2.277
X-6.625 Y-2.252
X-6.91 Y-2.202
X-6.955 Y-2.194
X-7.052 Y-2.174
X-7.194 Y-2.134
X-7.337 Y-2.093
X-7.475 Y-2.052
X-7.479 Y-2.051
X-7.55 Y-2.026
X-7.622 Y-1.998
X-7.906 Y-1.879
X-7.978 Y-1.848
X-8.049 Y-1.813
X-8.132 Y-1.767
X-8.334 Y-1.655
X-8.388 Y-1.625
X-8.476 Y-1.57
X-8.601 Y-1.482
X-8.761 Y-1.369
X-8.801 Y-1.34
X-8.903 Y-1.26
X-8.974 Y-1.197
X-9.188 Y-1.005
X-9.283 Y-0.913
X-9.33 Y-0.86
X-9.537 Y-0.628
X-9.615 Y-0.532
X-9.649 Y-0.485
X-9.757 Y-0.332
X-9.851 Y-0.201
X-9.9 Y-0.124
X-9.938 Y-0.058
X-10.095 Y0.227
X-10.132 Y0.298
X-10.164 Y0.369
X-10.185 Y0.418
X-10.282 Y0.654
X-10.327 Y0.768
X-10.337 Y0.796
X-10.38 Y0.939
X-10.42 Y1.081
X-10.461 Y1.223
X-10.469 Y1.258
X-10.514 Y1.501 Z-0.201
X-10.535 Y1.623 Z-0.202
X-10.555 Y1.745 Z-0.203
X-10.573 Y1.992 Z-0.206
X-10.587 Y2.239 Z-0.211
X-10.586 Y2.363 Z-0.214
X-10.579 Y2.486 Z-0.217
X-10.572 Y2.61 Z-0.22
X-10.565 Y2.733 Z-0.224
X-10.552 Y2.857 Z-0.227
X-10.532 Y2.979 Z-0.231
X-10.511 Y3.101 Z-0.235
X-10.49 Y3.223 Z-0.24
X-10.465 Y3.344 Z-0.244
X-10.432 Y3.463 Z-0.248
X-10.397 Y3.582 Z-0.253
X-10.363 Y3.701 Z-0.257
X-10.326 Y3.819 Z-0.261
X-10.28 Y3.934 Z-0.266
X-10.233 Y4.048 Z-0.27
X-10.185 Y4.162 Z-0.274
X-10.136 Y4.276 Z-0.279
X-10.079 Y4.385 Z-0.283
X-10.019 Y4.494 Z-0.287
X-9.959 Y4.602 Z-0.291
X-9.898 Y4.71 Z-0.296
X-9.83 Y4.813 Z-0.3
X-9.687 Y5.015 Z-0.309
X-9.615 Y5.116 Z-0.313
X-9.536 Y5.211 Z-0.317
X-9.454 Y5.304 Z-0.322
X-9.372 Y5.396 Z-0.326
X-9.289 Y5.488 Z-0.33
X-9.201 Y5.576 Z-0.335
X-9.109 Y5.658 Z-0.339
X-9.017 Y5.741 Z-0.343
X-8.925 Y5.824 Z-0.348
X-8.829 Y5.902 Z-0.352
X-8.729 Y5.974 Z-0.356
X-8.628 Y6.046 Z-0.361
X-8.527 Y6.118 Z-0.365
X-8.424 Y6.186 Z-0.369
X-8.316 Y6.247 Z-0.373
X-8.208 Y6.307 Z-0.377
X-8.1 Y6.367 Z-0.38
X-7.99 Y6.425 Z-0.383
X-7.877 Y6.474 Z-0.386
X-7.763 Y6.522 Z-0.389
X-7.648 Y6.569 Z-0.392
X-7.533 Y6.615 Z-0.394
X-7.297 Y6.687 Z-0.397
X-7.178 Y6.721 Z-0.398
X-7.059 Y6.755 Z-0.399
X-6.822 Y6.8 Z-0.4
X-6.625 Y6.834
X-6.482 Y6.86
X-6.398 Y6.875
X-6.396
X-6.269 Y6.914
X-6.268 Y6.915
X-6.146 Y6.969
X-6.144 Y6.97
X-6.031 Y7.038
X-6.03 Y7.039
X-5.925 Y7.121
X-5.924 Y7.122
X-5.831 Y7.215
X-5.83 Y7.216
X-5.748 Y7.321
X-5.747 Y7.323
X-5.679 Y7.435
X-5.678 Y7.438
X-5.623 Y7.559
Y7.56
X-5.584 Y7.687
X-5.583 Y7.689
X-5.568 Y7.774
X-5.543 Y7.916
X-5.493 Y8.201
X-5.486 Y8.247
X-5.465 Y8.343
X-5.425 Y8.486
X-5.384 Y8.628
X-5.343 Y8.767
X-5.342 Y8.77
X-5.317 Y8.842
X-5.289 Y8.913
X-5.17 Y9.198
X-5.139 Y9.269
X-5.104 Y9.34
X-5.058 Y9.423
X-4.946 Y9.625
X-4.916 Y9.679
X-4.862 Y9.767
X-4.774 Y9.893
X-4.66 Y10.052
X-4.631 Y10.092
X-4.552 Y10.194
X-4.489 Y10.265
X-4.297 Y10.479
X-4.204 Y10.574
X-4.151 Y10.622
X-3.919 Y10.828
X-3.824 Y10.906
X-3.777 Y10.941
X-3.624 Y11.049
X-3.492 Y11.142
X-3.416 Y11.191
X-3.35 Y11.229
X-3.065 Y11.386
X-2.994 Y11.423
X-2.922 Y11.455
X-2.873 Y11.476
X-2.638 Y11.573
X-2.524 Y11.618
X-2.495 Y11.628
X-2.353 Y11.671
X-2.21 Y11.712
X-2.068 Y11.752
X-2.034 Y11.761
X-1.926 Y11.783
X-1.641 Y11.831
X-1.498 Y11.852
X-1.356 Y11.861
X-1.214 Y11.869
X-1.071 Y11.877
X-1. Y11.879
X-0.929 Y11.877
X-0.786 Y11.869
X-0.644 Y11.861
X-0.502 Y11.852
X-0.359 Y11.831
X-0.074 Y11.783
X0.034 Y11.761
X0.068 Y11.752
X0.21 Y11.712
X0.353 Y11.671
X0.495 Y11.628
X0.524 Y11.618
X0.638 Y11.573
X0.873 Y11.476
X0.922 Y11.455
X0.994 Y11.423
X1.065 Y11.386
X1.35 Y11.229
X1.416 Y11.191
X1.492 Y11.142
X1.624 Y11.049
X1.777 Y10.941
X1.824 Y10.906
X1.919 Y10.828
X2.151 Y10.622
X2.204 Y10.574
X2.297 Y10.479
X2.489 Y10.265
X2.552 Y10.194
X2.631 Y10.092
X2.66 Y10.052
X2.774 Y9.893
X2.862 Y9.767
X2.916 Y9.679
X2.946 Y9.625
X3.058 Y9.423
X3.104 Y9.34
X3.139 Y9.269
X3.17 Y9.198
X3.289 Y8.913
X3.317 Y8.842
X3.342 Y8.77
X3.343 Y8.767
X3.384 Y8.628
X3.425 Y8.486
X3.465 Y8.343
X3.486 Y8.247
X3.493 Y8.201
X3.543 Y7.916
X3.568 Y7.774
X3.583 Y7.689
X3.584 Y7.687
X3.623 Y7.56
Y7.559
X3.678 Y7.438
X3.679 Y7.435
X3.747 Y7.323
X3.748 Y7.321
X3.83 Y7.216
X3.831 Y7.215
X3.924 Y7.122
X3.925 Y7.121
X4.03 Y7.039
X4.031 Y7.038
X4.144 Y6.97
X4.146 Y6.969
X4.268 Y6.915
X4.269 Y6.914
X4.396 Y6.875
X4.398
X4.482 Y6.86
X4.625 Y6.834
X4.91 Y6.785
X4.955 Y6.777
X5.052 Y6.756
X5.194 Y6.717
X5.337 Y6.675
X5.475 Y6.634
X5.479 Y6.633
X5.55 Y6.609
X5.622 Y6.58
X5.906 Y6.462
X5.978 Y6.431
X6.049 Y6.395
X6.132 Y6.35
X6.334 Y6.237
X6.388 Y6.207
X6.476 Y6.153
X6.601 Y6.065
X6.761 Y5.951
X6.801 Y5.922
X6.903 Y5.843
X6.974 Y5.78
X7.188 Y5.588
X7.283 Y5.495
X7.33 Y5.443
X7.537 Y5.21
X7.615 Y5.115
X7.649 Y5.068
X7.757 Y4.915
X7.851 Y4.783
X7.9 Y4.707
X7.938 Y4.641
X8.095 Y4.356
X8.132 Y4.285
X8.164 Y4.214
X8.185 Y4.164
X8.282 Y3.929
X8.327 Y3.815
X8.337 Y3.786
X8.38 Y3.644
X8.42 Y3.502
X8.461 Y3.359
X8.469 Y3.325
X8.491 Y3.217
X8.54 Y2.932
X8.56 Y2.79
X8.57 Y2.647
X8.578 Y2.505
X8.586 Y2.362
X8.587 Y2.291
X8.586 Y2.22
X8.578 Y2.078
X8.57 Y1.935
X8.56 Y1.793
X8.54 Y1.65
X8.491 Y1.366
X8.469 Y1.258
X8.461 Y1.223
X8.42 Y1.081
X8.38 Y0.939
X8.337 Y0.796
X8.327 Y0.768
X8.282 Y0.654
X8.185 Y0.418
X8.164 Y0.369
X8.132 Y0.298
X8.095 Y0.227
X7.938 Y-0.058
X7.9 Y-0.124
X7.851 Y-0.201
X7.757 Y-0.332
X7.649 Y-0.485
X7.615 Y-0.532
X7.537 Y-0.628
X7.33 Y-0.86
X7.283 Y-0.913
X7.188 Y-1.005
X6.974 Y-1.197
X6.903 Y-1.26
X6.801 Y-1.34
X6.761 Y-1.369
X6.601 Y-1.482
X6.476 Y-1.57
X6.388 Y-1.625
X6.334 Y-1.655
X6.132 Y-1.767
X6.049 Y-1.813
X5.978 Y-1.848
X5.906 Y-1.879
X5.622 Y-1.998
X5.55 Y-2.026
X5.479 Y-2.051
X5.475 Y-2.052
X5.337 Y-2.093
X5.194 Y-2.134
X5.052 Y-2.174
X4.955 Y-2.194
X4.91 Y-2.202
X4.625 Y-2.252
X4.482 Y-2.277
X4.398 Y-2.292
X4.396 Y-2.293
X4.269 Y-2.332
X4.268
X4.146 Y-2.386
X4.144 Y-2.388
X4.031 Y-2.455
X4.03 Y-2.457
X3.925 Y-2.538
X3.924 Y-2.54
X3.831 Y-2.632
X3.83 Y-2.634
X3.748 Y-2.738
X3.747 Y-2.74
X3.679 Y-2.853
X3.678 Y-2.855
X3.623 Y-2.976
Y-2.978
X3.584 Y-3.104
X3.583 Y-3.106
X3.568 Y-3.191
X3.543 Y-3.333
X3.493 Y-3.618
X3.486 Y-3.664
X3.465 Y-3.761
X3.425 Y-3.903
X3.384 Y-4.045
X3.343 Y-4.184
X3.342 Y-4.188
X3.317 Y-4.259
X3.289 Y-4.33
X3.17 Y-4.615
X3.139 Y-4.686
X3.104 Y-4.757
X3.058 Y-4.84
X2.946 Y-5.042
X2.916 Y-5.096
X2.862 Y-5.185
X2.774 Y-5.31
X2.66 Y-5.469
X2.631 Y-5.51
X2.552 Y-5.612
X2.489 Y-5.683
X2.297 Y-5.897
X2.204 Y-5.991
X2.151 Y-6.039
X1.919 Y-6.246
X1.824 Y-6.324
X1.777 Y-6.358
X1.624 Y-6.466
X1.492 Y-6.559
X1.416 Y-6.609
X1.35 Y-6.647
X1.065 Y-6.803
X0.994 Y-6.84
X0.922 Y-6.873
X0.873 Y-6.893
X0.638 Y-6.991
X0.524 Y-7.036
X0.495 Y-7.046
X0.353 Y-7.088
X0.21 Y-7.129
X0.068 Y-7.17
X0.034 Y-7.178
X-0.074 Y-7.2
X-0.359 Y-7.248
X-0.502 Y-7.269
X-0.644 Y-7.279
X-0.786 Y-7.287
X-0.929 Y-7.295
X-1. Y-7.296
X-1.071 Y-7.295
X-1.214 Y-7.287
X-1.356 Y-7.279
X-1.498 Y-7.269
X-1.641 Y-7.248
X-1.926 Y-7.2
X-2.034 Y-7.178
X-2.068 Y-7.17
X-2.21 Y-7.129
X-2.353 Y-7.088
X-2.495 Y-7.046
X-2.524 Y-7.036
X-2.638 Y-6.991
X-2.873 Y-6.893
X-2.922 Y-6.873
X-2.994 Y-6.84
X-3.065 Y-6.803
X-3.35 Y-6.647
X-3.416 Y-6.609
X-3.492 Y-6.559
X-3.624 Y-6.466
X-3.777 Y-6.358
X-3.824 Y-6.324
X-3.919 Y-6.246
X-4.151 Y-6.039
X-4.204 Y-5.991
X-4.297 Y-5.897
X-4.489 Y-5.683
X-4.552 Y-5.612
X-4.631 Y-5.51
X-4.66 Y-5.469
X-4.774 Y-5.31
X-4.862 Y-5.185
X-4.916 Y-5.096
X-4.946 Y-5.042
X-5.058 Y-4.84
X-5.104 Y-4.757
X-5.139 Y-4.686
X-5.17 Y-4.615
X-5.289 Y-4.33
X-5.317 Y-4.259
X-5.342 Y-4.188
X-5.343 Y-4.184
X-5.384 Y-4.045
X-5.425 Y-3.903
X-5.465 Y-3.761
X-5.486 Y-3.664
X-5.493 Y-3.618
X-5.543 Y-3.333
X-5.568 Y-3.191
X-5.583 Y-3.106
X-5.584 Y-3.104
X-5.623 Y-2.978
Y-2.976
X-5.678 Y-2.855
X-5.679 Y-2.853
X-5.747 Y-2.74
X-5.748 Y-2.738
X-5.83 Y-2.634
X-5.831 Y-2.632
X-5.924 Y-2.54
X-5.925 Y-2.538
X-6.03 Y-2.457
X-6.031 Y-2.455
X-6.144 Y-2.388
X-6.146 Y-2.386
X-6.268 Y-2.332
X-6.269
X-6.396 Y-2.293
X-6.398 Y-2.292
X-6.482 Y-2.277
X-6.625 Y-2.252
X-6.91 Y-2.202
X-6.955 Y-2.194
X-7.052 Y-2.174
X-7.194 Y-2.134
X-7.337 Y-2.093
X-7.475 Y-2.052
X-7.479 Y-2.051
X-7.55 Y-2.026
X-7.622 Y-1.998
X-7.906 Y-1.879
X-7.978 Y-1.848
X-8.049 Y-1.813
X-8.132 Y-1.767
X-8.334 Y-1.655
X-8.388 Y-1.625
X-8.476 Y-1.57
X-8.601 Y-1.482
X-8.761 Y-1.369
X-8.801 Y-1.34
X-8.903 Y-1.26
X-8.974 Y-1.197
X-9.188 Y-1.005
X-9.283 Y-0.913
X-9.33 Y-0.86
X-9.537 Y-0.628
X-9.615 Y-0.532
X-9.649 Y-0.485
X-9.757 Y-0.332
X-9.851 Y-0.201
X-9.9 Y-0.124
X-9.938 Y-0.058
X-10.095 Y0.227
X-10.132 Y0.298
X-10.164 Y0.369
X-10.185 Y0.418
X-10.282 Y0.654
X-10.327 Y0.768
X-10.337 Y0.796
X-10.38 Y0.939
X-10.42 Y1.081
X-10.461 Y1.223
X-10.469 Y1.258
X-10.491 Y1.366
X-10.54 Y1.65
X-10.56 Y1.793
X-10.57 Y1.935
X-10.578 Y2.078
X-10.586 Y2.22
X-10.587 Y2.291
X-10.586 Y2.362
X-10.578 Y2.505
X-10.57 Y2.647
X-10.56 Y2.79
X-10.54 Y2.932
X-10.491 Y3.217
X-10.469 Y3.325
X-10.461 Y3.359
X-10.42 Y3.502
X-10.38 Y3.644
X-10.337 Y3.786
X-10.327 Y3.815
X-10.282 Y3.929
X-10.185 Y4.164
X-10.164 Y4.214
X-10.132 Y4.285
X-10.095 Y4.356
X-9.938 Y4.641
X-9.9 Y4.707
X-9.851 Y4.783
X-9.757 Y4.915
X-9.649 Y5.068
X-9.615 Y5.115
X-9.537 Y5.21
X-9.33 Y5.443
X-9.283 Y5.495
X-9.188 Y5.588
X-8.974 Y5.78
X-8.903 Y5.843
X-8.801 Y5.922
X-8.761 Y5.951
X-8.601 Y6.065
X-8.476 Y6.153
X-8.388 Y6.207
X-8.334 Y6.237
X-8.132 Y6.35
X-8.049 Y6.395
X-7.978 Y6.431
X-7.906 Y6.462
X-7.622 Y6.58
X-7.55 Y6.609
X-7.479 Y6.633
X-7.475 Y6.634
X-7.337 Y6.675
X-7.194 Y6.717
X-7.052 Y6.756
X-6.955 Y6.777
X-6.91 Y6.785
X-6.822 Y6.8
X-6.579 Y6.842 Z-0.401
X-6.457 Y6.864 Z-0.402
X-6.403 Y6.874
X-6.4
X-6.396 Y6.875
X-6.337 Y6.893 Z-0.403
X-6.27 Y6.914 Z-0.404
X-6.267 Y6.915
X-6.249 Y6.923
X-6.221 Y6.936
X-6.15 Y6.967 Z-0.406
X-6.147 Y6.969
X-6.143 Y6.971
X-6.11 Y6.991
X-6.044 Y7.03 Z-0.408
X-6.034 Y7.036
X-6.031 Y7.039
X-6.006 Y7.058 Z-0.409
X-5.957 Y7.096 Z-0.41
X-5.927 Y7.119 Z-0.411
X-5.924 Y7.122
X-5.91 Y7.136
X-5.867 Y7.179 Z-0.412
X-5.831 Y7.215 Z-0.414
X-5.828 Y7.218
X-5.824 Y7.224
X-5.786 Y7.273 Z-0.415
X-5.75 Y7.318 Z-0.417
X-5.747 Y7.321
X-5.745 Y7.325
X-5.731 Y7.348 Z-0.418
X-5.716 Y7.374
X-5.68 Y7.434 Z-0.42
X-5.678 Y7.437
X-5.67 Y7.455 Z-0.421
X-5.657 Y7.483 Z-0.422
X-5.624 Y7.557 Z-0.424
X-5.623 Y7.561
X-5.611 Y7.598 Z-0.425
X-5.593 Y7.657 Z-0.427
X-5.584 Y7.687 Z-0.428
X-5.583 Y7.69
X-5.578 Y7.717 Z-0.429
X-5.567 Y7.778 Z-0.431
X-5.546 Y7.9 Z-0.435
X-5.525 Y8.022 Z-0.44
X-5.503 Y8.144 Z-0.444
X-5.482 Y8.266 Z-0.448
X-5.454 Y8.386 Z-0.453
X-5.42 Y8.505 Z-0.457
X-5.385 Y8.624 Z-0.461
X-5.35 Y8.743 Z-0.466
X-5.311 Y8.86 Z-0.47
X-5.264 Y8.974 Z-0.474
X-5.216 Y9.088 Z-0.479
X-5.168 Y9.203 Z-0.483
X-5.117 Y9.315 Z-0.487
X-5.058 Y9.424 Z-0.491
X-4.938 Y9.64 Z-0.5
X-4.875 Y9.747 Z-0.504
X-4.805 Y9.849 Z-0.509
X-4.733 Y9.95 Z-0.513
X-4.661 Y10.05 Z-0.517
X-4.588 Y10.15 Z-0.522
X-4.507 Y10.244 Z-0.526
X-4.425 Y10.336 Z-0.53
X-4.342 Y10.429 Z-0.535
X-4.259 Y10.52 Z-0.539
X-4.169 Y10.605 Z-0.543
X-4.077 Y10.688 Z-0.548
X-3.984 Y10.77 Z-0.552
X-3.892 Y10.852 Z-0.556
X-3.794 Y10.928 Z-0.561
X-3.693 Y11. Z-0.565
X-3.592 Y11.071 Z-0.569
X-3.491 Y11.142 Z-0.573
X-3.386 Y11.208 Z-0.577
X-3.278 Y11.268 Z-0.58
X-3.17 Y11.328 Z-0.583
X-3.061 Y11.388 Z-0.586
X-2.951 Y11.443 Z-0.589
X-2.722 Y11.538 Z-0.594
X-2.492 Y11.629 Z-0.597
X-2.374 Y11.665 Z-0.598
X-2.255 Y11.699 Z-0.599
X-2.023 Y11.763 Z-0.6
X-1.926 Y11.783
X-1.641 Y11.831
X-1.498 Y11.852
X-1.356 Y11.861
X-1.214 Y11.869
X-1.071 Y11.877
X-1. Y11.879
X-0.929 Y11.877
X-0.786 Y11.869
X-0.644 Y11.861
X-0.502 Y11.852
X-0.359 Y11.831
X-0.074 Y11.783
X0.034 Y11.761
X0.068 Y11.752
X0.21 Y11.712
X0.353 Y11.671
X0.495 Y11.628
X0.524 Y11.618
X0.638 Y11.573
X0.873 Y11.476
X0.922 Y11.455
X0.994 Y11.423
X1.065 Y11.386
X1.35 Y11.229
X1.416 Y11.191
X1.492 Y11.142
X1.624 Y11.049
X1.777 Y10.941
X1.824 Y10.906
X1.919 Y10.828
X2.151 Y10.622
X2.204 Y10.574
X2.297 Y10.479
X2.489 Y10.265
X2.552 Y10.194
X2.631 Y10.092
X2.66 Y10.052
X2.774 Y9.893
X2.862 Y9.767
X2.916 Y9.679
X2.946 Y9.625
X3.058 Y9.423
X3.104 Y9.34
X3.139 Y9.269
X3.17 Y9.198
X3.289 Y8.913
X3.317 Y8.842
X3.342 Y8.77
X3.343 Y8.767
X3.384 Y8.628
X3.425 Y8.486
X3.465 Y8.343
X3.486 Y8.247
X3.493 Y8.201
X3.543 Y7.916
X3.568 Y7.774
X3.583 Y7.689
X3.584 Y7.687
X3.623 Y7.56
Y7.559
X3.678 Y7.438
X3.679 Y7.435
X3.747 Y7.323
X3.748 Y7.321
X3.83 Y7.216
X3.831 Y7.215
X3.924 Y7.122
X3.925 Y7.121
X4.03 Y7.039
X4.031 Y7.038
X4.144 Y6.97
X4.146 Y6.969
X4.268 Y6.915
X4.269 Y6.914
X4.396 Y6.875
X4.398
X4.482 Y6.86
X4.625 Y6.834
X4.91 Y6.785
X4.955 Y6.777
X5.052 Y6.756
X5.194 Y6.717
X5.337 Y6.675
X5.475 Y6.634
X5.479 Y6.633
X5.55 Y6.609
X5.622 Y6.58
X5.906 Y6.462
X5.978 Y6.431
X6.049 Y6.395
X6.132 Y6.35
X6.334 Y6.237
X6.388 Y6.207
X6.476 Y6.153
X6.601 Y6.065
X6.761 Y5.951
X6.801 Y5.922
X6.903 Y5.843
X6.974 Y5.78
X7.188 Y5.588
X7.283 Y5.495
X7.33 Y5.443
X7.537 Y5.21
X7.615 Y5.115
X7.649 Y5.068
X7.757 Y4.915
X7.851 Y4.783
X7.9 Y4.707
X7.938 Y4.641
X8.095 Y4.356
X8.132 Y4.285
X8.164 Y4.214
X8.185 Y4.164
X8.282 Y3.929
X8.327 Y3.815
X8.337 Y3.786
X8.38 Y3.644
X8.42 Y3.502
X8.461 Y3.359
X8.469 Y3.325
X8.491 Y3.217
X8.54 Y2.932
X8.56 Y2.79
X8.57 Y2.647
X8.578 Y2.505
X8.586 Y2.362
X8.587 Y2.291
X8.586 Y2.22
X8.578 Y2.078
X8.57 Y1.935
X8.56 Y1.793
X8.54 Y1.65
X8.491 Y1.366
X8.469 Y1.258
X8.461 Y1.223
X8.42 Y1.081
X8.38 Y0.939
X8.337 Y0.796
X8.327 Y0.768
X8.282 Y0.654
X8.185 Y0.418
X8.164 Y0.369
X8.132 Y0.298
X8.095 Y0.227
X7.938 Y-0.058
X7.9 Y-0.124
X7.851 Y-0.201
X7.757 Y-0.332
X7.649 Y-0.485
X7.615 Y-0.532
X7.537 Y-0.628
X7.33 Y-0.86
X7.283 Y-0.913
X7.188 Y-1.005
X6.974 Y-1.197
X6.903 Y-1.26
X6.801 Y-1.34
X6.761 Y-1.369
X6.601 Y-1.482
X6.476 Y-1.57
X6.388 Y-1.625
X6.334 Y-1.655
X6.132 Y-1.767
X6.049 Y-1.813
X5.978 Y-1.848
X5.906 Y-1.879
X5.622 Y-1.998
X5.55 Y-2.026
X5.479 Y-2.051
X5.475 Y-2.052
X5.337 Y-2.093
X5.194 Y-2.134
X5.052 Y-2.174
X4.955 Y-2.194
X4.91 Y-2.202
X4.625 Y-2.252
X4.482 Y-2.277
X4.398 Y-2.292
X4.396 Y-2.293
X4.269 Y-2.332
X4.268
X4.146 Y-2.386
X4.144 Y-2.388
X4.031 Y-2.455
X4.03 Y-2.457
X3.925 Y-2.538
X3.924 Y-2.54
X3.831 Y-2.632
X3.83 Y-2.634
X3.748 Y-2.738
X3.747 Y-2.74
X3.679 Y-2.853
X3.678 Y-2.855
X3.623 Y-2.976
Y-2.978
X3.584 Y-3.104
X3.583 Y-3.106
X3.568 Y-3.191
X3.543 Y-3.333
X3.493 Y-3.618
X3.486 Y-3.664
X3.465 Y-3.761
X3.425 Y-3.903
X3.384 Y-4.045
X3.343 Y-4.184
X3.342 Y-4.188
X3.317 Y-4.259
X3.289 Y-4.33
X3.17 Y-4.615
X3.139 Y-4.686
X3.104 Y-4.757
X3.058 Y-4.84
X2.946 Y-5.042
X2.916 Y-5.096
X2.862 Y-5.185
X2.774 Y-5.31
X2.66 Y-5.469
X2.631 Y-5.51
X2.552 Y-5.612
X2.489 Y-5.683
X2.297 Y-5.897
X2.204 Y-5.991
X2.151 Y-6.039
X1.919 Y-6.246
X1.824 Y-6.324
X1.777 Y-6.358
X1.624 Y-6.466
X1.492 Y-6.559
X1.416 Y-6.609
X1.35 Y-6.647
X1.065 Y-6.803
X0.994 Y-6.84
X0.922 Y-6.873
X0.873 Y-6.893
X0.638 Y-6.991
X0.524 Y-7.036
X0.495 Y-7.046
X0.353 Y-7.088
X0.21 Y-7.129
X0.068 Y-7.17
X0.034 Y-7.178
X-0.074 Y-7.2
X-0.359 Y-7.248
X-0.502 Y-7.269
X-0.644 Y-7.279
X-0.786 Y-7.287
X-0.929 Y-7.295
X-1. Y-7.296
X-1.071 Y-7.295
X-1.214 Y-7.287
X-1.356 Y-7.279
X-1.498 Y-7.269
X-1.641 Y-7.248
X-1.926 Y-7.2
X-2.034 Y-7.178
X-2.068 Y-7.17
X-2.21 Y-7.129
X-2.353 Y-7.088
X-2.495 Y-7.046
X-2.524 Y-7.036
X-2.638 Y-6.991
X-2.873 Y-6.893
X-2.922 Y-6.873
X-2.994 Y-6.84
X-3.065 Y-6.803
X-3.35 Y-6.647
X-3.416 Y-6.609
X-3.492 Y-6.559
X-3.624 Y-6.466
X-3.777 Y-6.358
X-3.824 Y-6.324
X-3.919 Y-6.246
X-4.151 Y-6.039
X-4.204 Y-5.991
X-4.297 Y-5.897
X-4.489 Y-5.683
X-4.552 Y-5.612
X-4.631 Y-5.51
X-4.66 Y-5.469
X-4.774 Y-5.31
X-4.862 Y-5.185
X-4.916 Y-5.096
X-4.946 Y-5.042
X-5.058 Y-4.84
X-5.104 Y-4.757
X-5.139 Y-4.686
X-5.17 Y-4.615
X-5.289 Y-4.33
X-5.317 Y-4.259
X-5.342 Y-4.188
X-5.343 Y-4.184
X-5.384 Y-4.045
X-5.425 Y-3.903
X-5.465 Y-3.761
X-5.486 Y-3.664
X-5.493 Y-3.618
X-5.543 Y-3.333
X-5.568 Y-3.191
X-5.583 Y-3.106
X-5.584 Y-3.104
X-5.623 Y-2.978
Y-2.976
X-5.678 Y-2.855
X-5.679 Y-2.853
X-5.747 Y-2.74
X-5.748 Y-2.738
X-5.83 Y-2.634
X-5.831 Y-2.632
X-5.924 Y-2.54
X-5.925 Y-2.538
X-6.03 Y-2.457
X-6.031 Y-2.455
X-6.144 Y-2.388
X-6.146 Y-2.386
X-6.268 Y-2.332
X-6.269
X-6.396 Y-2.293
X-6.398 Y-2.292
X-6.482 Y-2.277
X-6.625 Y-2.252
X-6.91 Y-2.202
X-6.955 Y-2.194
X-7.052 Y-2.174
X-7.194 Y-2.134
X-7.337 Y-2.093
X-7.475 Y-2.052
X-7.479 Y-2.051
X-7.55 Y-2.026
X-7.622 Y-1.998
X-7.906 Y-1.879
X-7.978 Y-1.848
X-8.049 Y-1.813
X-8.132 Y-1.767
X-8.334 Y-1.655
X-8.388 Y-1.625
X-8.476 Y-1.57
X-8.601 Y-1.482
X-8.761 Y-1.369
X-8.801 Y-1.34
X-8.903 Y-1.26
X-8.974 Y-1.197
X-9.188 Y-1.005
X-9.283 Y-0.913
X-9.33 Y-0.86
X-9.537 Y-0.628
X-9.615 Y-0.532
X-9.649 Y-0.485
X-9.757 Y-0.332
X-9.851 Y-0.201
X-9.9 Y-0.124
X-9.938 Y-0.058
X-10.095 Y0.227
X-10.132 Y0.298
X-10.164 Y0.369
X-10.185 Y0.418
X-10.282 Y0.654
X-10.327 Y0.768
X-10.337 Y0.796
X-10.38 Y0.939
X-10.42 Y1.081
X-10.461 Y1.223
X-10.469 Y1.258
X-10.491 Y1.366
X-10.54 Y1.65
X-10.56 Y1.793
X-10.57 Y1.935
X-10.578 Y2.078
X-10.586 Y2.22
X-10.587 Y2.291
X-10.586 Y2.362
X-10.578 Y2.505
X-10.57 Y2.647
X-10.56 Y2.79
X-10.54 Y2.932
X-10.491 Y3.217
X-10.469 Y3.325
X-10.461 Y3.359
X-10.42 Y3.502
X-10.38 Y3.644
X-10.337 Y3.786
X-10.327 Y3.815
X-10.282 Y3.929
X-10.185 Y4.164
X-10.164 Y4.214
X-10.132 Y4.285
X-10.095 Y4.356
X-9.938 Y4.641
X-9.9 Y4.707
X-9.851 Y4.783
X-9.757 Y4.915
X-9.649 Y5.068
X-9.615 Y5.115
X-9.537 Y5.21
X-9.33 Y5.443
X-9.283 Y5.495
X-9.188 Y5.588
X-8.974 Y5.78
X-8.903 Y5.843
X-8.801 Y5.922
X-8.761 Y5.951
X-8.601 Y6.065
X-8.476 Y6.153
X-8.388 Y6.207
X-8.334 Y6.237
X-8.132 Y6.35
X-8.049 Y6.395
X-7.978 Y6.431
X-7.906 Y6.462
X-7.622 Y6.58
X-7.55 Y6.609
X-7.479 Y6.633
X-7.475 Y6.634
X-7.337 Y6.675
X-7.194 Y6.717
X-7.052 Y6.756
X-6.955 Y6.777
X-6.91 Y6.785
X-6.625 Y6.834
X-6.482 Y6.86
X-6.398 Y6.875
X-6.396
X-6.269 Y6.914
X-6.268 Y6.915
X-6.146 Y6.969
X-6.144 Y6.97
X-6.031 Y7.038
X-6.03 Y7.039
X-5.925 Y7.121
X-5.924 Y7.122
X-5.831 Y7.215
X-5.83 Y7.216
X-5.748 Y7.321
X-5.747 Y7.323
X-5.679 Y7.435
X-5.678 Y7.438
X-5.623 Y7.559
Y7.56
X-5.584 Y7.687
X-5.583 Y7.689
X-5.568 Y7.774
X-5.543 Y7.916
X-5.493 Y8.201
X-5.486 Y8.247
X-5.465 Y8.343
X-5.425 Y8.486
X-5.384 Y8.628
X-5.343 Y8.767
X-5.342 Y8.77
X-5.317 Y8.842
X-5.289 Y8.913
X-5.17 Y9.198
X-5.139 Y9.269
X-5.104 Y9.34
X-5.058 Y9.423
X-4.946 Y9.625
X-4.916 Y9.679
X-4.862 Y9.767
X-4.774 Y9.893
X-4.66 Y10.052
X-4.631 Y10.092
X-4.552 Y10.194
X-4.489 Y10.265
X-4.297 Y10.479
X-4.204 Y10.574
X-4.151 Y10.622
X-3.919 Y10.828
X-3.824 Y10.906
X-3.777 Y10.941
X-3.624 Y11.049
X-3.492 Y11.142
X-3.416 Y11.191
X-3.35 Y11.229
X-3.065 Y11.386
X-2.994 Y11.423
X-2.922 Y11.455
X-2.873 Y11.476
X-2.638 Y11.573
X-2.524 Y11.618
X-2.495 Y11.628
X-2.353 Y11.671
X-2.21 Y11.712
X-2.068 Y11.752
X-2.034 Y11.761
X-2.023 Y11.763
X-1.779 Y11.807 Z-0.601
X-1.657 Y11.828 Z-0.602
X-1.535 Y11.847 Z-0.603
X-1.288 Y11.865 Z-0.606
X-1.041 Y11.878 Z-0.611
X-0.917 Y11.877 Z-0.614
X-0.794 Y11.87 Z-0.617
X-0.67 Y11.863 Z-0.62
X-0.547 Y11.856 Z-0.624
X-0.424 Y11.842 Z-0.627
X-0.302 Y11.821 Z-0.631
X-0.18 Y11.8 Z-0.635
X-0.058 Y11.78 Z-0.64
X0.063 Y11.753 Z-0.644
X0.182 Y11.72 Z-0.648
X0.301 Y11.686 Z-0.653
X0.42 Y11.651 Z-0.657
X0.538 Y11.613 Z-0.661
X0.653 Y11.567 Z-0.666
X0.767 Y11.52 Z-0.67
X0.882 Y11.472 Z-0.674
X0.995 Y11.422 Z-0.679
X1.104 Y11.364 Z-0.683
X1.212 Y11.305 Z-0.687
X1.321 Y11.245 Z-0.691
X1.428 Y11.183 Z-0.696
X1.531 Y11.114 Z-0.7
X1.733 Y10.972 Z-0.709
X1.833 Y10.899 Z-0.713
X1.928 Y10.82 Z-0.717
X2.021 Y10.738 Z-0.722
X2.113 Y10.655 Z-0.726
X2.205 Y10.573 Z-0.73
X2.292 Y10.484 Z-0.735
X2.375 Y10.392 Z-0.739
X2.457 Y10.3 Z-0.743
X2.54 Y10.208 Z-0.748
X2.617 Y10.111 Z-0.752
X2.689 Y10.011 Z-0.756
X2.761 Y9.91 Z-0.761
X2.833 Y9.809 Z-0.765
X2.9 Y9.706 Z-0.769
X2.961 Y9.598 Z-0.773
X3.021 Y9.49 Z-0.777
X3.081 Y9.381 Z-0.78
X3.138 Y9.271 Z-0.783
X3.187 Y9.158 Z-0.786
X3.235 Y9.044 Z-0.789
X3.282 Y8.929 Z-0.792
X3.327 Y8.814 Z-0.794
X3.399 Y8.577 Z-0.797
X3.433 Y8.458 Z-0.798
X3.466 Y8.339 Z-0.799
X3.511 Y8.103 Z-0.8
X3.543 Y7.916
X3.568 Y7.774
X3.583 Y7.689
X3.584 Y7.687
X3.623 Y7.56
Y7.559
X3.678 Y7.438
X3.679 Y7.435
X3.747 Y7.323
X3.748 Y7.321
X3.83 Y7.216
X3.831 Y7.215
X3.924 Y7.122
X3.925 Y7.121
X4.03 Y7.039
X4.031 Y7.038
X4.144 Y6.97
X4.146 Y6.969
X4.268 Y6.915
X4.269 Y6.914
X4.396 Y6.875
X4.398
X4.482 Y6.86
X4.625 Y6.834
X4.91 Y6.785
X4.955 Y6.777
X5.052 Y6.756
X5.194 Y6.717
X5.337 Y6.675
X5.475 Y6.634
X5.479 Y6.633
X5.55 Y6.609
X5.622 Y6.58
X5.906 Y6.462
X5.978 Y6.431
X6.049 Y6.395
X6.132 Y6.35
X6.334 Y6.237
X6.388 Y6.207
X6.476 Y6.153
X6.601 Y6.065
X6.761 Y5.951
X6.801 Y5.922
X6.903 Y5.843
X6.974 Y5.78
X7.188 Y5.588
X7.283 Y5.495
X7.33 Y5.443
X7.537 Y5.21
X7.615 Y5.115
X7.649 Y5.068
X7.757 Y4.915
X7.851 Y4.783
X7.9 Y4.707
X7.938 Y4.641
X8.095 Y4.356
X8.132 Y4.285
X8.164 Y4.214
X8.185 Y4.164
X8.282 Y3.929
X8.327 Y3.815
X8.337 Y3.786
X8.38 Y3.644
X8.42 Y3.502
X8.461 Y3.359
X8.469 Y3.325
X8.491 Y3.217
X8.54 Y2.932
X8.56 Y2.79
X8.57 Y2.647
X8.578 Y2.505
X8.586 Y2.362
X8.587 Y2.291
X8.586 Y2.22
X8.578 Y2.078
X8.57 Y1.935
X8.56 Y1.793
X8.54 Y1.65
X8.491 Y1.366
X8.469 Y1.258
X8.461 Y1.223
X8.42 Y1.081
X8.38 Y0.939
X8.337 Y0.796
X8.327 Y0.768
X8.282 Y0.654
X8.185 Y0.418
X8.164 Y0.369
X8.132 Y0.298
X8.095 Y0.227
X7.938 Y-0.058
X7.9 Y-0.124
X7.851 Y-0.201
X7.757 Y-0.332
X7.649 Y-0.485
X7.615 Y-0.532
X7.537 Y-0.628
X7.33 Y-0.86
X7.283 Y-0.913
X7.188 Y-1.005
X6.974 Y-1.197
X6.903 Y-1.26
X6.801 Y-1.34
X6.761 Y-1.369
X6.601 Y-1.482
X6.476 Y-1.57
X6.388 Y-1.625
X6.334 Y-1.655
X6.132 Y-1.767
X6.049 Y-1.813
X5.978 Y-1.848
X5.906 Y-1.879
X5.622 Y-1.998
X5.55 Y-2.026
X5.479 Y-2.051
X5.475 Y-2.052
X5.337 Y-2.093
X5.194 Y-2.134
X5.052 Y-2.174
X4.955 Y-2.194
X4.91 Y-2.202
X4.625 Y-2.252
X4.482 Y-2.277
X4.398 Y-2.292
X4.396 Y-2.293
X4.269 Y-2.332
X4.268
X4.146 Y-2.386
X4.144 Y-2.388
X4.031 Y-2.455
X4.03 Y-2.457
X3.925 Y-2.538
X3.924 Y-2.54
X3.831 Y-2.632
X3.83 Y-2.634
X3.748 Y-2.738
X3.747 Y-2.74
X3.679 Y-2.853
X3.678 Y-2.855
X3.623 Y-2.976
Y-2.978
X3.584 Y-3.104
X3.583 Y-3.106
X3.568 Y-3.191
X3.543 Y-3.333
X3.493 Y-3.618
X3.486 Y-3.664
X3.465 Y-3.761
X3.425 Y-3.903
X3.384 Y-4.045
X3.343 Y-4.184
X3.342 Y-4.188
X3.317 Y-4.259
X3.289 Y-4.33
X3.17 Y-4.615
X3.139 Y-4.686
X3.104 Y-4.757
X3.058 Y-4.84
X2.946 Y-5.042
X2.916 Y-5.096
X2.862 Y-5.185
X2.774 Y-5.31
X2.66 Y-5.469
X2.631 Y-5.51
X2.552 Y-5.612
X2.489 Y-5.683
X2.297 Y-5.897
X2.204 Y-5.991
X2.151 Y-6.039
X1.919 Y-6.246
X1.824 Y-6.324
X1.777 Y-6.358
X1.624 Y-6.466
X1.492 Y-6.559
X1.416 Y-6.609
X1.35 Y-6.647
X1.065 Y-6.803
X0.994 Y-6.84
X0.922 Y-6.873
X0.873 Y-6.893
X0.638 Y-6.991
X0.524 Y-7.036
X0.495 Y-7.046
X0.353 Y-7.088
X0.21 Y-7.129
X0.068 Y-7.17
X0.034 Y-7.178
X-0.074 Y-7.2
X-0.359 Y-7.248
X-0.502 Y-7.269
X-0.644 Y-7.279
X-0.786 Y-7.287
X-0.929 Y-7.295
X-1. Y-7.296
X-1.071 Y-7.295
X-1.214 Y-7.287
X-1.356 Y-7.279
X-1.498 Y-7.269
X-1.641 Y-7.248
X-1.926 Y-7.2
X-2.034 Y-7.178
X-2.068 Y-7.17
X-2.21 Y-7.129
X-2.353 Y-7.088
X-2.495 Y-7.046
X-2.524 Y-7.036
X-2.638 Y-6.991
X-2.873 Y-6.893
X-2.922 Y-6.873
X-2.994 Y-6.84
X-3.065 Y-6.803
X-3.35 Y-6.647
X-3.416 Y-6.609
X-3.492 Y-6.559
X-3.624 Y-6.466
X-3.777 Y-6.358
X-3.824 Y-6.324
X-3.919 Y-6.246
X-4.151 Y-6.039
X-4.204 Y-5.991
X-4.297 Y-5.897
X-4.489 Y-5.683
X-4.552 Y-5.612
X-4.631 Y-5.51
X-4.66 Y-5.469
X-4.774 Y-5.31
X-4.862 Y-5.185
X-4.916 Y-5.096
X-4.946 Y-5.042
X-5.058 Y-4.84
X-5.104 Y-4.757
X-5.139 Y-4.686
X-5.17 Y-4.615
X-5.289 Y-4.33
X-5.317 Y-4.259
X-5.342 Y-4.188
X-5.343 Y-4.184
X-5.384 Y-4.045
X-5.425 Y-3.903
X-5.465 Y-3.761
X-5.486 Y-3.664
X-5.493 Y-3.618
X-5.543 Y-3.333
X-5.568 Y-3.191
X-5.583 Y-3.106
X-5.584 Y-3.104
X-5.623 Y-2.978
Y-2.976
X-5.678 Y-2.855
X-5.679 Y-2.853
X-5.747 Y-2.74
X-5.748 Y-2.738
X-5.83 Y-2.634
X-5.831 Y-2.632
X-5.924 Y-2.54
X-5.925 Y-2.538
X-6.03 Y-2.457
X-6.031 Y-2.455
X-6.144 Y-2.388
X-6.146 Y-2.386
X-6.268 Y-2.332
X-6.269
X-6.396 Y-2.293
X-6.398 Y-2.292
X-6.482 Y-2.277
X-6.625 Y-2.252
X-6.91 Y-2.202
X-6.955 Y-2.194
X-7.052 Y-2.174
X-7.194 Y-2.134
X-7.337 Y-2.093
X-7.475 Y-2.052
X-7.479 Y-2.051
X-7.55 Y-2.026
X-7.622 Y-1.998
X-7.906 Y-1.879
X-7.978 Y-1.848
X-8.049 Y-1.813
X-8.132 Y-1.767
X-8.334 Y-1.655
X-8.388 Y-1.625
X-8.476 Y-1.57
X-8.601 Y-1.482
X-8.761 Y-1.369
X-8.801 Y-1.34
X-8.903 Y-1.26
X-8.974 Y-1.197
X-9.188 Y-1.005
X-9.283 Y-0.913
X-9.33 Y-0.86
X-9.537 Y-0.628
X-9.615 Y-0.532
X-9.649 Y-0.485
X-9.757 Y-0.332
X-9.851 Y-0.201
X-9.9 Y-0.124
X-9.938 Y-0.058
X-10.095 Y0.227
X-10.132 Y0.298
X-10.164 Y0.369
X-10.185 Y0.418
X-10.282 Y0.654
X-10.327 Y0.768
X-10.337 Y0.796
X-10.38 Y0.939
X-10.42 Y1.081
X-10.461 Y1.223
X-10.469 Y1.258
X-10.491 Y1.366
X-10.54 Y1.65
X-10.56 Y1.793
X-10.57 Y1.935
X-10.578 Y2.078
X-10.586 Y2.22
X-10.587 Y2.291
X-10.586 Y2.362
X-10.578 Y2.505
X-10.57 Y2.647
X-10.56 Y2.79
X-10.54 Y2.932
X-10.491 Y3.217
X-10.469 Y3.325
X-10.461 Y3.359
X-10.42 Y3.502
X-10.38 Y3.644
X-10.337 Y3.786
X-10.327 Y3.815
X-10.282 Y3.929
X-10.185 Y4.164
X-10.164 Y4.214
X-10.132 Y4.285
X-10.095 Y4.356
X-9.938 Y4.641
X-9.9 Y4.707
X-9.851 Y4.783
X-9.757 Y4.915
X-9.649 Y5.068
X-9.615 Y5.115
X-9.537 Y5.21
X-9.33 Y5.443
X-9.283 Y5.495
X-9.188 Y5.588
X-8.974 Y5.78
X-8.903 Y5.843
X-8.801 Y5.922
X-8.761 Y5.951
X-8.601 Y6.065
X-8.476 Y6.153
X-8.388 Y6.207
X-8.334 Y6.237
X-8.132 Y6.35
X-8.049 Y6.395
X-7.978 Y6.431
X-7.906 Y6.462
X-7.622 Y6.58
X-7.55 Y6.609
X-7.479 Y6.633
X-7.475 Y6.634
X-7.337 Y6.675
X-7.194 Y6.717
X-7.052 Y6.756
X-6.955 Y6.777
X-6.91 Y6.785
X-6.625 Y6.834
X-6.482 Y6.86
X-6.398 Y6.875
X-6.396
X-6.269 Y6.914
X-6.268 Y6.915
X-6.146 Y6.969
X-6.144 Y6.97
X-6.031 Y7.038
X-6.03 Y7.039
X-5.925 Y7.121
X-5.924 Y7.122
X-5.831 Y7.215
X-5.83 Y7.216
X-5.748 Y7.321
X-5.747 Y7.323
X-5.679 Y7.435
X-5.678 Y7.438
X-5.623 Y7.559
Y7.56
X-5.584 Y7.687
X-5.583 Y7.689
X-5.568 Y7.774
X-5.543 Y7.916
X-5.493 Y8.201
X-5.486 Y8.247
X-5.465 Y8.343
X-5.425 Y8.486
X-5.384 Y8.628
X-5.343 Y8.767
X-5.342 Y8.77
X-5.317 Y8.842
X-5.289 Y8.913
X-5.17 Y9.198
X-5.139 Y9.269
X-5.104 Y9.34
X-5.058 Y9.423
X-4.946 Y9.625
X-4.916 Y9.679
X-4.862 Y9.767
X-4.774 Y9.893
X-4.66 Y10.052
X-4.631 Y10.092
X-4.552 Y10.194
X-4.489 Y10.265
X-4.297 Y10.479
X-4.204 Y10.574
X-4.151 Y10.622
X-3.919 Y10.828
X-3.824 Y10.906
X-3.777 Y10.941
X-3.624 Y11.049
X-3.492 Y11.142
X-3.416 Y11.191
X-3.35 Y11.229
X-3.065 Y11.386
X-2.994 Y11.423
X-2.922 Y11.455
X-2.873 Y11.476
X-2.638 Y11.573
X-2.524 Y11.618
X-2.495 Y11.628
X-2.353 Y11.671
X-2.21 Y11.712
X-2.068 Y11.752
X-2.034 Y11.761
X-1.926 Y11.783
X-1.641 Y11.831
X-1.498 Y11.852
X-1.356 Y11.861
X-1.214 Y11.869
X-1.071 Y11.877
X-1. Y11.879
X-0.929 Y11.877
X-0.786 Y11.869
X-0.644 Y11.861
X-0.502 Y11.852
X-0.359 Y11.831
X-0.074 Y11.783
X0.034 Y11.761
X0.068 Y11.752
X0.21 Y11.712
X0.353 Y11.671
X0.495 Y11.628
X0.524 Y11.618
X0.638 Y11.573
X0.873 Y11.476
X0.922 Y11.455
X0.994 Y11.423
X1.065 Y11.386
X1.35 Y11.229
X1.416 Y11.191
X1.492 Y11.142
X1.624 Y11.049
X1.777 Y10.941
X1.824 Y10.906
X1.919 Y10.828
X2.151 Y10.622
X2.204 Y10.574
X2.297 Y10.479
X2.489 Y10.265
X2.552 Y10.194
X2.631 Y10.092
X2.66 Y10.052
X2.774 Y9.893
X2.862 Y9.767
X2.916 Y9.679
X2.946 Y9.625
X3.058 Y9.423
X3.104 Y9.34
X3.139 Y9.269
X3.17 Y9.198
X3.289 Y8.913
X3.317 Y8.842
X3.342 Y8.77
X3.343 Y8.767
X3.384 Y8.628
X3.425 Y8.486
X3.465 Y8.343
X3.486 Y8.247
X3.493 Y8.201
X3.511 Y8.103
X3.553 Y7.859 Z-0.801
X3.575 Y7.737 Z-0.802
X3.583 Y7.691
X3.584 Y7.687
X3.587 Y7.676
X3.605 Y7.617 Z-0.803
X3.621 Y7.565 Z-0.804
X3.622 Y7.562
X3.624 Y7.558
X3.649 Y7.502
X3.677 Y7.438 Z-0.806
X3.679 Y7.435
X3.689 Y7.418
X3.705 Y7.392
X3.747 Y7.322 Z-0.808
X3.754 Y7.313
X3.773 Y7.289 Z-0.809
X3.821 Y7.228 Z-0.81
X3.828 Y7.219
X3.83 Y7.216
X3.852 Y7.194 Z-0.811
X3.896 Y7.15 Z-0.812
X3.923 Y7.123 Z-0.813
X3.926 Y7.12
X3.942 Y7.108 Z-0.814
X3.99 Y7.07 Z-0.815
X4.03 Y7.039 Z-0.817
X4.033 Y7.037
X4.04 Y7.033
X4.093 Y7.001 Z-0.818
X4.146 Y6.969 Z-0.82
X4.149 Y6.967
X4.174 Y6.956 Z-0.821
X4.202 Y6.944 Z-0.822
X4.266 Y6.915 Z-0.824
X4.269 Y6.914
X4.288 Y6.908 Z-0.825
X4.318 Y6.899
X4.395 Y6.875 Z-0.828
X4.399 Y6.874
X4.437 Y6.868 Z-0.829
X4.498 Y6.857 Z-0.831
X4.62 Y6.835 Z-0.835
X4.742 Y6.814 Z-0.84
X4.864 Y6.793 Z-0.844
X4.985 Y6.771 Z-0.848
X5.106 Y6.742 Z-0.853
X5.225 Y6.708 Z-0.857
X5.343 Y6.673 Z-0.861
X5.462 Y6.639 Z-0.866
X5.579 Y6.598 Z-0.87
X5.693 Y6.55 Z-0.874
X5.808 Y6.503 Z-0.879
X5.922 Y6.455 Z-0.883
X6.034 Y6.403 Z-0.887
X6.143 Y6.344 Z-0.892
X6.359 Y6.223 Z-0.9
X6.465 Y6.16 Z-0.904
X6.567 Y6.09 Z-0.909
X6.668 Y6.018 Z-0.913
X6.768 Y5.946 Z-0.917
X6.868 Y5.872 Z-0.922
X6.961 Y5.791 Z-0.926
X7.054 Y5.709 Z-0.93
X7.146 Y5.626 Z-0.935
X7.237 Y5.542 Z-0.939
X7.322 Y5.452 Z-0.943
X7.404 Y5.36 Z-0.948
X7.486 Y5.267 Z-0.952
X7.568 Y5.174 Z-0.956
X7.643 Y5.076 Z-0.961
X7.715 Y4.975 Z-0.965
X7.786 Y4.874 Z-0.969
X7.858 Y4.773 Z-0.973
X7.923 Y4.668 Z-0.977
X7.983 Y4.56 Z-0.98
X8.042 Y4.451 Z-0.983
X8.102 Y4.343 Z-0.986
X8.156 Y4.232 Z-0.989
X8.251 Y4.003 Z-0.994
X8.342 Y3.773 Z-0.997
X8.377 Y3.654 Z-0.998
X8.411 Y3.535 Z-0.999
X8.474 Y3.303 Z-1.
X8.491 Y3.217
X8.54 Y2.932
X8.56 Y2.79
X8.57 Y2.647
X8.578 Y2.505
X8.586 Y2.362
X8.587 Y2.291
X8.586 Y2.22
X8.578 Y2.078
X8.57 Y1.935
X8.56 Y1.793
X8.54 Y1.65
X8.491 Y1.366
X8.469 Y1.258
X8.461 Y1.223
X8.42 Y1.081
X8.38 Y0.939
X8.337 Y0.796
X8.327 Y0.768
X8.282 Y0.654
X8.185 Y0.418
X8.164 Y0.369
X8.132 Y0.298
X8.095 Y0.227
X7.938 Y-0.058
X7.9 Y-0.124
X7.851 Y-0.201
X7.757 Y-0.332
X7.649 Y-0.485
X7.615 Y-0.532
X7.537 Y-0.628
X7.33 Y-0.86
X7.283 Y-0.913
X7.188 Y-1.005
X6.974 Y-1.197
X6.903 Y-1.26
X6.801 Y-1.34
X6.761 Y-1.369
X6.601 Y-1.482
X6.476 Y-1.57
X6.388 Y-1.625
X6.334 Y-1.655
X6.132 Y-1.767
X6.049 Y-1.813
X5.978 Y-1.848
X5.906 Y-1.879
X5.622 Y-1.998
X5.55 Y-2.026
X5.479 Y-2.051
X5.475 Y-2.052
X5.337 Y-2.093
X5.194 Y-2.134
X5.052 Y-2.174
X4.955 Y-2.194
X4.91 Y-2.202
X4.625 Y-2.252
X4.482 Y-2.277
X4.398 Y-2.292
X4.396 Y-2.293
X4.269 Y-2.332
X4.268
X4.146 Y-2.386
X4.144 Y-2.388
X4.031 Y-2.455
X4.03 Y-2.457
X3.925 Y-2.538
X3.924 Y-2.54
X3.831 Y-2.632
X3.83 Y-2.634
X3.748 Y-2.738
X3.747 Y-2.74
X3.679 Y-2.853
X3.678 Y-2.855
X3.623 Y-2.976
Y-2.978
X3.584 Y-3.104
X3.583 Y-3.106
X3.568 Y-3.191
X3.543 Y-3.333
X3.493 Y-3.618
X3.486 Y-3.664
X3.465 Y-3.761
X3.425 Y-3.903
X3.384 Y-4.045
X3.343 Y-4.184
X3.342 Y-4.188
X3.317 Y-4.259
X3.289 Y-4.33
X3.17 Y-4.615
X3.139 Y-4.686
X3.104 Y-4.757
X3.058 Y-4.84
X2.946 Y-5.042
X2.916 Y-5.096
X2.862 Y-5.185
X2.774 Y-5.31
X2.66 Y-5.469
X2.631 Y-5.51
X2.552 Y-5.612
X2.489 Y-5.683
X2.297 Y-5.897
X2.204 Y-5.991
X2.151 Y-6.039
X1.919 Y-6.246
X1.824 Y-6.324
X1.777 Y-6.358
X1.624 Y-6.466
X1.492 Y-6.559
X1.416 Y-6.609
X1.35 Y-6.647
X1.065 Y-6.803
X0.994 Y-6.84
X0.922 Y-6.873
X0.873 Y-6.893
X0.638 Y-6.991
X0.524 Y-7.036
X0.495 Y-7.046
X0.353 Y-7.088
X0.21 Y-7.129
X0.068 Y-7.17
X0.034 Y-7.178
X-0.074 Y-7.2
X-0.359 Y-7.248
X-0.502 Y-7.269
X-0.644 Y-7.279
X-0.786 Y-7.287
X-0.929 Y-7.295
X-1. Y-7.296
X-1.071 Y-7.295
X-1.214 Y-7.287
X-1.356 Y-7.279
X-1.498 Y-7.269
X-1.641 Y-7.248
X-1.926 Y-7.2
X-2.034 Y-7.178
X-2.068 Y-7.17
X-2.21 Y-7.129
X-2.353 Y-7.088
X-2.495 Y-7.046
X-2.524 Y-7.036
X-2.638 Y-6.991
X-2.873 Y-6.893
X-2.922 Y-6.873
X-2.994 Y-6.84
X-3.065 Y-6.803
X-3.35 Y-6.647
X-3.416 Y-6.609
X-3.492 Y-6.559
X-3.624 Y-6.466
X-3.777 Y-6.358
X-3.824 Y-6.324
X-3.919 Y-6.246
X-4.151 Y-6.039
X-4.204 Y-5.991
X-4.297 Y-5.897
X-4.489 Y-5.683
X-4.552 Y-5.612
X-4.631 Y-5.51
X-4.66 Y-5.469
X-4.774 Y-5.31
X-4.862 Y-5.185
X-4.916 Y-5.096
X-4.946 Y-5.042
X-5.058 Y-4.84
X-5.104 Y-4.757
X-5.139 Y-4.686
X-5.17 Y-4.615
X-5.289 Y-4.33
X-5.317 Y-4.259
X-5.342 Y-4.188
X-5.343 Y-4.184
X-5.384 Y-4.045
X-5.425 Y-3.903
X-5.465 Y-3.761
X-5.486 Y-3.664
X-5.493 Y-3.618
X-5.543 Y-3.333
X-5.568 Y-3.191
X-5.583 Y-3.106
X-5.584 Y-3.104
X-5.623 Y-2.978
Y-2.976
X-5.678 Y-2.855
X-5.679 Y-2.853
X-5.747 Y-2.74
X-5.748 Y-2.738
X-5.83 Y-2.634
X-5.831 Y-2.632
X-5.924 Y-2.54
X-5.925 Y-2.538
X-6.03 Y-2.457
X-6.031 Y-2.455
X-6.144 Y-2.388
X-6.146 Y-2.386
X-6.268 Y-2.332
X-6.269
X-6.396 Y-2.293
X-6.398 Y-2.292
X-6.482 Y-2.277
X-6.625 Y-2.252
X-6.91 Y-2.202
X-6.955 Y-2.194
X-7.052 Y-2.174
X-7.194 Y-2.134
X-7.337 Y-2.093
X-7.475 Y-2.052
X-7.479 Y-2.051
X-7.55 Y-2.026
X-7.622 Y-1.998
X-7.906 Y-1.879
X-7.978 Y-1.848
X-8.049 Y-1.813
X-8.132 Y-1.767
X-8.334 Y-1.655
X-8.388 Y-1.625
X-8.476 Y-1.57
X-8.601 Y-1.482
X-8.761 Y-1.369
X-8.801 Y-1.34
X-8.903 Y-1.26
X-8.974 Y-1.197
X-9.188 Y-1.005
X-9.283 Y-0.913
X-9.33 Y-0.86
X-9.537 Y-0.628
X-9.615 Y-0.532
X-9.649 Y-0.485
X-9.757 Y-0.332
X-9.851 Y-0.201
X-9.9 Y-0.124
X-9.938 Y-0.058
X-10.095 Y0.227
X-10.132 Y0.298
X-10.164 Y0.369
X-10.185 Y0.418
X-10.282 Y0.654
X-10.327 Y0.768
X-10.337 Y0.796
X-10.38 Y0.939
X-10.42 Y1.081
X-10.461 Y1.223
X-10.469 Y1.258
X-10.491 Y1.366
X-10.54 Y1.65
X-10.56 Y1.793
X-10.57 Y1.935
X-10.578 Y2.078
X-10.586 Y2.22
X-10.587 Y2.291
X-10.586 Y2.362
X-10.578 Y2.505
X-10.57 Y2.647
X-10.56 Y2.79
X-10.54 Y2.932
X-10.491 Y3.217
X-10.469 Y3.325
X-10.461 Y3.359
X-10.42 Y3.502
X-10.38 Y3.644
X-10.337 Y3.786
X-10.327 Y3.815
X-10.282 Y3.929
X-10.185 Y4.164
X-10.164 Y4.214
X-10.132 Y4.285
X-10.095 Y4.356
X-9.938 Y4.641
X-9.9 Y4.707
X-9.851 Y4.783
X-9.757 Y4.915
X-9.649 Y5.068
X-9.615 Y5.115
X-9.537 Y5.21
X-9.33 Y5.443
X-9.283 Y5.495
X-9.188 Y5.588
X-8.974 Y5.78
X-8.903 Y5.843
X-8.801 Y5.922
X-8.761 Y5.951
X-8.601 Y6.065
X-8.476 Y6.153
X-8.388 Y6.207
X-8.334 Y6.237
X-8.132 Y6.35
X-8.049 Y6.395
X-7.978 Y6.431
X-7.906 Y6.462
X-7.622 Y6.58
X-7.55 Y6.609
X-7.479 Y6.633
X-7.475 Y6.634
X-7.337 Y6.675
X-7.194 Y6.717
X-7.052 Y6.756
X-6.955 Y6.777
X-6.91 Y6.785
X-6.625 Y6.834
X-6.482 Y6.86
X-6.398 Y6.875
X-6.396
X-6.269 Y6.914
X-6.268 Y6.915
X-6.146 Y6.969
X-6.144 Y6.97
X-6.031 Y7.038
X-6.03 Y7.039
X-5.925 Y7.121
X-5.924 Y7.122
X-5.831 Y7.215
X-5.83 Y7.216
X-5.748 Y7.321
X-5.747 Y7.323
X-5.679 Y7.435
X-5.678 Y7.438
X-5.623 Y7.559
Y7.56
X-5.584 Y7.687
X-5.583 Y7.689
X-5.568 Y7.774
X-5.543 Y7.916
X-5.493 Y8.201
X-5.486 Y8.247
X-5.465 Y8.343
X-5.425 Y8.486
X-5.384 Y8.628
X-5.343 Y8.767
X-5.342 Y8.77
X-5.317 Y8.842
X-5.289 Y8.913
X-5.17 Y9.198
X-5.139 Y9.269
X-5.104 Y9.34
X-5.058 Y9.423
X-4.946 Y9.625
X-4.916 Y9.679
X-4.862 Y9.767
X-4.774 Y9.893
X-4.66 Y10.052
X-4.631 Y10.092
X-4.552 Y10.194
X-4.489 Y10.265
X-4.297 Y10.479
X-4.204 Y10.574
X-4.151 Y10.622
X-3.919 Y10.828
X-3.824 Y10.906
X-3.777 Y10.941
X-3.624 Y11.049
X-3.492 Y11.142
X-3.416 Y11.191
X-3.35 Y11.229
X-3.065 Y11.386
X-2.994 Y11.423
X-2.922 Y11.455
X-2.873 Y11.476
X-2.638 Y11.573
X-2.524 Y11.618
X-2.495 Y11.628
X-2.353 Y11.671
X-2.21 Y11.712
X-2.068 Y11.752
X-2.034 Y11.761
X-1.926 Y11.783
X-1.641 Y11.831
X-1.498 Y11.852
X-1.356 Y11.861
X-1.214 Y11.869
X-1.071 Y11.877
X-1. Y11.879
X-0.929 Y11.877
X-0.786 Y11.869
X-0.644 Y11.861
X-0.502 Y11.852
X-0.359 Y11.831
X-0.074 Y11.783
X0.034 Y11.761
X0.068 Y11.752
X0.21 Y11.712
X0.353 Y11.671
X0.495 Y11.628
X0.524 Y11.618
X0.638 Y11.573
X0.873 Y11.476
X0.922 Y11.455
X0.994 Y11.423
X1.065 Y11.386
X1.35 Y11.229
X1.416 Y11.191
X1.492 Y11.142
X1.624 Y11.049
X1.777 Y10.941
X1.824 Y10.906
X1.919 Y10.828
X2.151 Y10.622
X2.204 Y10.574
X2.297 Y10.479
X2.489 Y10.265
X2.552 Y10.194
X2.631 Y10.092
X2.66 Y10.052
X2.774 Y9.893
X2.862 Y9.767
X2.916 Y9.679
X2.946 Y9.625
X3.058 Y9.423
X3.104 Y9.34
X3.139 Y9.269
X3.17 Y9.198
X3.289 Y8.913
X3.317 Y8.842
X3.342 Y8.77
X3.343 Y8.767
X3.384 Y8.628
X3.425 Y8.486
X3.465 Y8.343
X3.486 Y8.247
X3.493 Y8.201
X3.543 Y7.916
X3.568 Y7.774
X3.583 Y7.689
X3.584 Y7.687
X3.623 Y7.56
Y7.559
X3.678 Y7.438
X3.679 Y7.435
X3.747 Y7.323
X3.748 Y7.321
X3.83 Y7.216
X3.831 Y7.215
X3.924 Y7.122
X3.925 Y7.121
X4.03 Y7.039
X4.031 Y7.038
X4.144 Y6.97
X4.146 Y6.969
X4.268 Y6.915
X4.269 Y6.914
X4.396 Y6.875
X4.398
X4.482 Y6.86
X4.625 Y6.834
X4.91 Y6.785
X4.955 Y6.777
X5.052 Y6.756
X5.194 Y6.717
X5.337 Y6.675
X5.475 Y6.634
X5.479 Y6.633
X5.55 Y6.609
X5.622 Y6.58
X5.906 Y6.462
X5.978 Y6.431
X6.049 Y6.395
X6.132 Y6.35
X6.334 Y6.237
X6.388 Y6.207
X6.476 Y6.153
X6.601 Y6.065
X6.761 Y5.951
X6.801 Y5.922
X6.903 Y5.843
X6.974 Y5.78
X7.188 Y5.588
X7.283 Y5.495
X7.33 Y5.443
X7.537 Y5.21
X7.615 Y5.115
X7.649 Y5.068
X7.757 Y4.915
X7.851 Y4.783
X7.9 Y4.707
X7.938 Y4.641
X8.095 Y4.356
X8.132 Y4.285
X8.164 Y4.214
X8.185 Y4.164
X8.282 Y3.929
X8.327 Y3.815
X8.337 Y3.786
X8.38 Y3.644
X8.42 Y3.502
X8.461 Y3.359
X8.469 Y3.325
X8.474 Y3.303
X8.518 Y3.059 Z-1.001
X8.557 Y2.815 Z-1.003
X8.568 Y2.692 Z-1.004
X8.574 Y2.568 Z-1.006
X8.587 Y2.321 Z-1.011
X8.585 Y2.197 Z-1.014
X8.578 Y2.074 Z-1.017
X8.571 Y1.95 Z-1.02
X8.563 Y1.827 Z-1.024
X8.549 Y1.704 Z-1.027
X8.528 Y1.582 Z-1.031
X8.507 Y1.46 Z-1.035
X8.486 Y1.338 Z-1.04
X8.459 Y1.217 Z-1.044
X8.425 Y1.098 Z-1.048
X8.391 Y0.979 Z-1.053
X8.357 Y0.86 Z-1.057
X8.318 Y0.743 Z-1.061
X8.271 Y0.628 Z-1.066
X8.224 Y0.514 Z-1.07
X8.177 Y0.399 Z-1.074
X8.126 Y0.287 Z-1.079
X8.068 Y0.177 Z-1.083
X8.008 Y0.069 Z-1.087
X7.948 Y-0.039 Z-1.091
X7.886 Y-0.146 Z-1.096
X7.817 Y-0.249 Z-1.1
X7.674 Y-0.451 Z-1.109
X7.601 Y-0.551 Z-1.113
X7.521 Y-0.646 Z-1.117
X7.439 Y-0.738 Z-1.122
X7.357 Y-0.83 Z-1.126
X7.274 Y-0.922 Z-1.13
X7.185 Y-1.008 Z-1.135
X7.093 Y-1.091 Z-1.139
X7.001 Y-1.174 Z-1.143
X6.908 Y-1.256 Z-1.148
X6.811 Y-1.333 Z-1.152
X6.71 Y-1.405 Z-1.156
X6.61 Y-1.476 Z-1.161
X6.509 Y-1.548 Z-1.165
X6.405 Y-1.615 Z-1.169
X6.297 Y-1.675 Z-1.173
X6.188 Y-1.735 Z-1.177
X6.08 Y-1.796 Z-1.18
X5.97 Y-1.851 Z-1.183
X5.856 Y-1.9 Z-1.186
X5.742 Y-1.948 Z-1.189
X5.512 Y-2.04 Z-1.194
X5.394 Y-2.076 Z-1.196
X5.275 Y-2.111 Z-1.197
X5.156 Y-2.145 Z-1.198
X5.037 Y-2.178 Z-1.199
X4.8 Y-2.221 Z-1.2
X4.625 Y-2.252
X4.482 Y-2.277
X4.398 Y-2.292
X4.396 Y-2.293
X4.269 Y-2.332
X4.268
X4.146 Y-2.386
X4.144 Y-2.388
X4.031 Y-2.455
X4.03 Y-2.457
X3.925 Y-2.538
X3.924 Y-2.54
X3.831 Y-2.632
X3.83 Y-2.634
X3.748 Y-2.738
X3.747 Y-2.74
X3.679 Y-2.853
X3.678 Y-2.855
X3.623 Y-2.976
Y-2.978
X3.584 Y-3.104
X3.583 Y-3.106
X3.568 Y-3.191
X3.543 Y-3.333
X3.493 Y-3.618
X3.486 Y-3.664
X3.465 Y-3.761
X3.425 Y-3.903
X3.384 Y-4.045
X3.343 Y-4.184
X3.342 Y-4.188
X3.317 Y-4.259
X3.289 Y-4.33
X3.17 Y-4.615
X3.139 Y-4.686
X3.104 Y-4.757
X3.058 Y-4.84
X2.946 Y-5.042
X2.916 Y-5.096
X2.862 Y-5.185
X2.774 Y-5.31
X2.66 Y-5.469
X2.631 Y-5.51
X2.552 Y-5.612
X2.489 Y-5.683
X2.297 Y-5.897
X2.204 Y-5.991
X2.151 Y-6.039
X1.919 Y-6.246
X1.824 Y-6.324
X1.777 Y-6.358
X1.624 Y-6.466
X1.492 Y-6.559
X1.416 Y-6.609
X1.35 Y-6.647
X1.065 Y-6.803
X0.994 Y-6.84
X0.922 Y-6.873
X0.873 Y-6.893
X0.638 Y-6.991
X0.524 Y-7.036
X0.495 Y-7.046
X0.353 Y-7.088
X0.21 Y-7.129
X0.068 Y-7.17
X0.034 Y-7.178
X-0.074 Y-7.2
X-0.359 Y-7.248
X-0.502 Y-7.269
X-0.644 Y-7.279
X-0.786 Y-7.287
X-0.929 Y-7.295
X-1. Y-7.296
X-1.071 Y-7.295
X-1.214 Y-7.287
X-1.356 Y-7.279
X-1.498 Y-7.269
X-1.641 Y-7.248
X-1.926 Y-7.2
X-2.034 Y-7.178
X-2.068 Y-7.17
X-2.21 Y-7.129
X-2.353 Y-7.088
X-2.495 Y-7.046
X-2.524 Y-7.036
X-2.638 Y-6.991
X-2.873 Y-6.893
X-2.922 Y-6.873
X-2.994 Y-6.84
X-3.065 Y-6.803
X-3.35 Y-6.647
X-3.416 Y-6.609
X-3.492 Y-6.559
X-3.624 Y-6.466
X-3.777 Y-6.358
X-3.824 Y-6.324
X-3.919 Y-6.246
X-4.151 Y-6.039
X-4.204 Y-5.991
X-4.297 Y-5.897
X-4.489 Y-5.683
X-4.552 Y-5.612
X-4.631 Y-5.51
X-4.66 Y-5.469
X-4.774 Y-5.31
X-4.862 Y-5.185
X-4.916 Y-5.096
X-4.946 Y-5.042
X-5.058 Y-4.84
X-5.104 Y-4.757
X-5.139 Y-4.686
X-5.17 Y-4.615
X-5.289 Y-4.33
X-5.317 Y-4.259
X-5.342 Y-4.188
X-5.343 Y-4.184
X-5.384 Y-4.045
X-5.425 Y-3.903
X-5.465 Y-3.761
X-5.486 Y-3.664
X-5.493 Y-3.618
X-5.543 Y-3.333
X-5.568 Y-3.191
X-5.583 Y-3.106
X-5.584 Y-3.104
X-5.623 Y-2.978
Y-2.976
X-5.678 Y-2.855
X-5.679 Y-2.853
X-5.747 Y-2.74
X-5.748 Y-2.738
X-5.83 Y-2.634
X-5.831 Y-2.632
X-5.924 Y-2.54
X-5.925 Y-2.538
X-6.03 Y-2.457
X-6.031 Y-2.455
X-6.144 Y-2.388
X-6.146 Y-2.386
X-6.268 Y-2.332
X-6.269
X-6.396 Y-2.293
X-6.398 Y-2.292
X-6.482 Y-2.277
X-6.625 Y-2.252
X-6.91 Y-2.202
X-6.955 Y-2.194
X-7.052 Y-2.174
X-7.194 Y-2.134
X-7.337 Y-2.093
X-7.475 Y-2.052
X-7.479 Y-2.051
X-7.55 Y-2.026
X-7.622 Y-1.998
X-7.906 Y-1.879
X-7.978 Y-1.848
X-8.049 Y-1.813
X-8.132 Y-1.767
X-8.334 Y-1.655
X-8.388 Y-1.625
X-8.476 Y-1.57
X-8.601 Y-1.482
X-8.761 Y-1.369
X-8.801 Y-1.34
X-8.903 Y-1.26
X-8.974 Y-1.197
X-9.188 Y-1.005
X-9.283 Y-0.913
X-9.33 Y-0.86
X-9.537 Y-0.628
X-9.615 Y-0.532
X-9.649 Y-0.485
X-9.757 Y-0.332
X-9.851 Y-0.201
X-9.9 Y-0.124
X-9.938 Y-0.058
X-10.095 Y0.227
X-10.132 Y0.298
X-10.164 Y0.369
X-10.185 Y0.418
X-10.282 Y0.654
X-10.327 Y0.768
X-10.337 Y0.796
X-10.38 Y0.939
X-10.42 Y1.081
X-10.461 Y1.223
X-10.469 Y1.258
X-10.491 Y1.366
X-10.54 Y1.65
X-10.56 Y1.793
X-10.57 Y1.935
X-10.578 Y2.078
X-10.586 Y2.22
X-10.587 Y2.291
X-10.586 Y2.362
X-10.578 Y2.505
X-10.57 Y2.647
X-10.56 Y2.79
X-10.54 Y2.932
X-10.491 Y3.217
X-10.469 Y3.325
X-10.461 Y3.359
X-10.42 Y3.502
X-10.38 Y3.644
X-10.337 Y3.786
X-10.327 Y3.815
X-10.282 Y3.929
X-10.185 Y4.164
X-10.164 Y4.214
X-10.132 Y4.285
X-10.095 Y4.356
X-9.938 Y4.641
X-9.9 Y4.707
X-9.851 Y4.783
X-9.757 Y4.915
X-9.649 Y5.068
X-9.615 Y5.115
X-9.537 Y5.21
X-9.33 Y5.443
X-9.283 Y5.495
X-9.188 Y5.588
X-8.974 Y5.78
X-8.903 Y5.843
X-8.801 Y5.922
X-8.761 Y5.951
X-8.601 Y6.065
X-8.476 Y6.153
X-8.388 Y6.207
X-8.334 Y6.237
X-8.132 Y6.35
X-8.049 Y6.395
X-7.978 Y6.431
X-7.906 Y6.462
X-7.622 Y6.58
X-7.55 Y6.609
X-7.479 Y6.633
X-7.475 Y6.634
X-7.337 Y6.675
X-7.194 Y6.717
X-7.052 Y6.756
X-6.955 Y6.777
X-6.91 Y6.785
X-6.625 Y6.834
X-6.482 Y6.86
X-6.398 Y6.875
X-6.396
X-6.269 Y6.914
X-6.268 Y6.915
X-6.146 Y6.969
X-6.144 Y6.97
X-6.031 Y7.038
X-6.03 Y7.039
X-5.925 Y7.121
X-5.924 Y7.122
X-5.831 Y7.215
X-5.83 Y7.216
X-5.748 Y7.321
X-5.747 Y7.323
X-5.679 Y7.435
X-5.678 Y7.438
X-5.623 Y7.559
Y7.56
X-5.584 Y7.687
X-5.583 Y7.689
X-5.568 Y7.774
X-5.543 Y7.916
X-5.493 Y8.201
X-5.486 Y8.247
X-5.465 Y8.343
X-5.425 Y8.486
X-5.384 Y8.628
X-5.343 Y8.767
X-5.342 Y8.77
X-5.317 Y8.842
X-5.289 Y8.913
X-5.17 Y9.198
X-5.139 Y9.269
X-5.104 Y9.34
X-5.058 Y9.423
X-4.946 Y9.625
X-4.916 Y9.679
X-4.862 Y9.767
X-4.774 Y9.893
X-4.66 Y10.052
X-4.631 Y10.092
X-4.552 Y10.194
X-4.489 Y10.265
X-4.297 Y10.479
X-4.204 Y10.574
X-4.151 Y10.622
X-3.919 Y10.828
X-3.824 Y10.906
X-3.777 Y10.941
X-3.624 Y11.049
X-3.492 Y11.142
X-3.416 Y11.191
X-3.35 Y11.229
X-3.065 Y11.386
X-2.994 Y11.423
X-2.922 Y11.455
X-2.873 Y11.476
X-2.638 Y11.573
X-2.524 Y11.618
X-2.495 Y11.628
X-2.353 Y11.671
X-2.21 Y11.712
X-2.068 Y11.752
X-2.034 Y11.761
X-1.926 Y11.783
X-1.641 Y11.831
X-1.498 Y11.852
X-1.356 Y11.861
X-1.214 Y11.869
X-1.071 Y11.877
X-1. Y11.879
X-0.929 Y11.877
X-0.786 Y11.869
X-0.644 Y11.861
X-0.502 Y11.852
X-0.359 Y11.831
X-0.074 Y11.783
X0.034 Y11.761
X0.068 Y11.752
X0.21 Y11.712
X0.353 Y11.671
X0.495 Y11.628
X0.524 Y11.618
X0.638 Y11.573
X0.873 Y11.476
X0.922 Y11.455
X0.994 Y11.423
X1.065 Y11.386
X1.35 Y11.229
X1.416 Y11.191
X1.492 Y11.142
X1.624 Y11.049
X1.777 Y10.941
X1.824 Y10.906
X1.919 Y10.828
X2.151 Y10.622
X2.204 Y10.574
X2.297 Y10.479
X2.489 Y10.265
X2.552 Y10.194
X2.631 Y10.092
X2.66 Y10.052
X2.774 Y9.893
X2.862 Y9.767
X2.916 Y9.679
X2.946 Y9.625
X3.058 Y9.423
X3.104 Y9.34
X3.139 Y9.269
X3.17 Y9.198
X3.289 Y8.913
X3.317 Y8.842
X3.342 Y8.77
X3.343 Y8.767
X3.384 Y8.628
X3.425 Y8.486
X3.465 Y8.343
X3.486 Y8.247
X3.493 Y8.201
X3.543 Y7.916
X3.568 Y7.774
X3.583 Y7.689
X3.584 Y7.687
X3.623 Y7.56
Y7.559
X3.678 Y7.438
X3.679 Y7.435
X3.747 Y7.323
X3.748 Y7.321
X3.83 Y7.216
X3.831 Y7.215
X3.924 Y7.122
X3.925 Y7.121
X4.03 Y7.039
X4.031 Y7.038
X4.144 Y6.97
X4.146 Y6.969
X4.268 Y6.915
X4.269 Y6.914
X4.396 Y6.875
X4.398
X4.482 Y6.86
X4.625 Y6.834
X4.91 Y6.785
X4.955 Y6.777
X5.052 Y6.756
X5.194 Y6.717
X5.337 Y6.675
X5.475 Y6.634
X5.479 Y6.633
X5.55 Y6.609
X5.622 Y6.58
X5.906 Y6.462
X5.978 Y6.431
X6.049 Y6.395
X6.132 Y6.35
X6.334 Y6.237
X6.388 Y6.207
X6.476 Y6.153
X6.601 Y6.065
X6.761 Y5.951
X6.801 Y5.922
X6.903 Y5.843
X6.974 Y5.78
X7.188 Y5.588
X7.283 Y5.495
X7.33 Y5.443
X7.537 Y5.21
X7.615 Y5.115
X7.649 Y5.068
X7.757 Y4.915
X7.851 Y4.783
X7.9 Y4.707
X7.938 Y4.641
X8.095 Y4.356
X8.132 Y4.285
X8.164 Y4.214
X8.185 Y4.164
X8.282 Y3.929
X8.327 Y3.815
X8.337 Y3.786
X8.38 Y3.644
X8.42 Y3.502
X8.461 Y3.359
X8.469 Y3.325
X8.491 Y3.217
X8.54 Y2.932
X8.56 Y2.79
X8.57 Y2.647
X8.578 Y2.505
X8.586 Y2.362
X8.587 Y2.291
X8.586 Y2.22
X8.578 Y2.078
X8.57 Y1.935
X8.56 Y1.793
X8.54 Y1.65
X8.491 Y1.366
X8.469 Y1.258
X8.461 Y1.223
X8.42 Y1.081
X8.38 Y0.939
X8.337 Y0.796
X8.327 Y0.768
X8.282 Y0.654
X8.185 Y0.418
X8.164 Y0.369
X8.132 Y0.298
X8.095 Y0.227
X7.938 Y-0.058
X7.9 Y-0.124
X7.851 Y-0.201
X7.757 Y-0.332
X7.649 Y-0.485
X7.615 Y-0.532
X7.537 Y-0.628
X7.33 Y-0.86
X7.283 Y-0.913
X7.188 Y-1.005
X6.974 Y-1.197
X6.903 Y-1.26
X6.801 Y-1.34
X6.761 Y-1.369
X6.601 Y-1.482
X6.476 Y-1.57
X6.388 Y-1.625
X6.334 Y-1.655
X6.132 Y-1.767
X6.049 Y-1.813
X5.978 Y-1.848
X5.906 Y-1.879
X5.622 Y-1.998
X5.55 Y-2.026
X5.479 Y-2.051
X5.475 Y-2.052
X5.337 Y-2.093
X5.194 Y-2.134
X5.052 Y-2.174
X4.955 Y-2.194
X4.91 Y-2.202
X4.8 Y-2.221
X4.556 Y-2.264 Z-1.201
X4.435 Y-2.285 Z-1.202
X4.4 Y-2.292
X4.397
X4.374 Y-2.299
X4.315 Y-2.317 Z-1.203
X4.271 Y-2.331
X4.267 Y-2.332 Z-1.204
X4.257 Y-2.337
X4.2 Y-2.362
X4.151 Y-2.384 Z-1.205
X4.147 Y-2.386
X4.144 Y-2.388
X4.091 Y-2.42 Z-1.206
X4.031 Y-2.456 Z-1.208
X4.028 Y-2.458
X4.013 Y-2.47
X3.988 Y-2.489 Z-1.209
X3.928 Y-2.537 Z-1.21
X3.924 Y-2.539
X3.916 Y-2.547
X3.894 Y-2.569 Z-1.211
X3.84 Y-2.624 Z-1.213
X3.832 Y-2.632
X3.829 Y-2.635
X3.81 Y-2.659 Z-1.214
X3.772 Y-2.708 Z-1.215
X3.748 Y-2.738 Z-1.216
X3.746 Y-2.742
X3.736 Y-2.758 Z-1.217
X3.704 Y-2.811 Z-1.218
X3.678 Y-2.854 Z-1.22
X3.676 Y-2.858
X3.673 Y-2.865
X3.648 Y-2.921 Z-1.222
X3.624 Y-2.974 Z-1.224
X3.623 Y-2.978
X3.614 Y-3.007 Z-1.225
X3.605 Y-3.037
X3.584 Y-3.103 Z-1.228
X3.583 Y-3.107
X3.58 Y-3.126
X3.574 Y-3.157 Z-1.229
X3.563 Y-3.218 Z-1.231
X3.542 Y-3.339 Z-1.235
X3.521 Y-3.461 Z-1.24
X3.5 Y-3.583 Z-1.244
X3.478 Y-3.705 Z-1.248
X3.448 Y-3.825 Z-1.253
X3.413 Y-3.944 Z-1.257
X3.379 Y-4.063 Z-1.261
X3.344 Y-4.182 Z-1.266
X3.302 Y-4.298 Z-1.27
X3.255 Y-4.412 Z-1.274
X3.207 Y-4.527 Z-1.279
X3.159 Y-4.641 Z-1.283
X3.106 Y-4.753 Z-1.287
X3.047 Y-4.861 Z-1.292
X2.927 Y-5.077 Z-1.3
X2.863 Y-5.183 Z-1.304
X2.792 Y-5.285 Z-1.309
X2.72 Y-5.385 Z-1.313
X2.648 Y-5.486 Z-1.317
X2.574 Y-5.585 Z-1.322
X2.492 Y-5.679 Z-1.326
X2.41 Y-5.771 Z-1.33
X2.327 Y-5.863 Z-1.335
X2.243 Y-5.953 Z-1.339
X2.153 Y-6.038 Z-1.343
X2.06 Y-6.12 Z-1.348
X1.968 Y-6.202 Z-1.352
X1.874 Y-6.284 Z-1.356
X1.776 Y-6.359 Z-1.361
X1.675 Y-6.43 Z-1.365
X1.574 Y-6.502 Z-1.369
X1.472 Y-6.572 Z-1.373
X1.367 Y-6.637 Z-1.377
X1.258 Y-6.697 Z-1.38
X1.15 Y-6.756 Z-1.383
X1.042 Y-6.816 Z-1.386
X0.93 Y-6.87 Z-1.389
X0.701 Y-6.964 Z-1.394
X0.471 Y-7.054 Z-1.397
X0.233 Y-7.123 Z-1.399
X0.001 Y-7.185 Z-1.4
X-0.074 Y-7.2
X-0.359 Y-7.248
X-0.502 Y-7.269
X-0.644 Y-7.279
X-0.786 Y-7.287
X-0.929 Y-7.295
X-1. Y-7.296
X-1.071 Y-7.295
X-1.214 Y-7.287
X-1.356 Y-7.279
X-1.498 Y-7.269
X-1.641 Y-7.248
X-1.926 Y-7.2
X-2.034 Y-7.178
X-2.068 Y-7.17
X-2.21 Y-7.129
X-2.353 Y-7.088
X-2.495 Y-7.046
X-2.524 Y-7.036
X-2.638 Y-6.991
X-2.873 Y-6.893
X-2.922 Y-6.873
X-2.994 Y-6.84
X-3.065 Y-6.803
X-3.35 Y-6.647
X-3.416 Y-6.609
X-3.492 Y-6.559
X-3.624 Y-6.466
X-3.777 Y-6.358
X-3.824 Y-6.324
X-3.919 Y-6.246
X-4.151 Y-6.039
X-4.204 Y-5.991
X-4.297 Y-5.897
X-4.489 Y-5.683
X-4.552 Y-5.612
X-4.631 Y-5.51
X-4.66 Y-5.469
X-4.774 Y-5.31
X-4.862 Y-5.185
X-4.916 Y-5.096
X-4.946 Y-5.042
X-5.058 Y-4.84
X-5.104 Y-4.757
X-5.139 Y-4.686
X-5.17 Y-4.615
X-5.289 Y-4.33
X-5.317 Y-4.259
X-5.342 Y-4.188
X-5.343 Y-4.184
X-5.384 Y-4.045
X-5.425 Y-3.903
X-5.465 Y-3.761
X-5.486 Y-3.664
X-5.493 Y-3.618
X-5.543 Y-3.333
X-5.568 Y-3.191
X-5.583 Y-3.106
X-5.584 Y-3.104
X-5.623 Y-2.978
Y-2.976
X-5.678 Y-2.855
X-5.679 Y-2.853
X-5.747 Y-2.74
X-5.748 Y-2.738
X-5.83 Y-2.634
X-5.831 Y-2.632
X-5.924 Y-2.54
X-5.925 Y-2.538
X-6.03 Y-2.457
X-6.031 Y-2.455
X-6.144 Y-2.388
X-6.146 Y-2.386
X-6.268 Y-2.332
X-6.269
X-6.396 Y-2.293
X-6.398 Y-2.292
X-6.482 Y-2.277
X-6.625 Y-2.252
X-6.91 Y-2.202
X-6.955 Y-2.194
X-7.052 Y-2.174
X-7.194 Y-2.134
X-7.337 Y-2.093
X-7.475 Y-2.052
X-7.479 Y-2.051
X-7.55 Y-2.026
X-7.622 Y-1.998
X-7.906 Y-1.879
X-7.978 Y-1.848
X-8.049 Y-1.813
X-8.132 Y-1.767
X-8.334 Y-1.655
X-8.388 Y-1.625
X-8.476 Y-1.57
X-8.601 Y-1.482
X-8.761 Y-1.369
X-8.801 Y-1.34
X-8.903 Y-1.26
X-8.974 Y-1.197
X-9.188 Y-1.005
X-9.283 Y-0.913
X-9.33 Y-0.86
X-9.537 Y-0.628
X-9.615 Y-0.532
X-9.649 Y-0.485
X-9.757 Y-0.332
X-9.851 Y-0.201
X-9.9 Y-0.124
X-9.938 Y-0.058
X-10.095 Y0.227
X-10.132 Y0.298
X-10.164 Y0.369
X-10.185 Y0.418
X-10.282 Y0.654
X-10.327 Y0.768
X-10.337 Y0.796
X-10.38 Y0.939
X-10.42 Y1.081
X-10.461 Y1.223
X-10.469 Y1.258
X-10.491 Y1.366
X-10.54 Y1.65
X-10.56 Y1.793
X-10.57 Y1.935
X-10.578 Y2.078
X-10.586 Y2.22
X-10.587 Y2.291
X-10.586 Y2.362
X-10.578 Y2.505
X-10.57 Y2.647
X-10.56 Y2.79
X-10.54 Y2.932
X-10.491 Y3.217
X-10.469 Y3.325
X-10.461 Y3.359
X-10.42 Y3.502
X-10.38 Y3.644
X-10.337 Y3.786
X-10.327 Y3.815
X-10.282 Y3.929
X-10.185 Y4.164
X-10.164 Y4.214
X-10.132 Y4.285
X-10.095 Y4.356
X-9.938 Y4.641
X-9.9 Y4.707
X-9.851 Y4.783
X-9.757 Y4.915
X-9.649 Y5.068
X-9.615 Y5.115
X-9.537 Y5.21
X-9.33 Y5.443
X-9.283 Y5.495
X-9.188 Y5.588
X-8.974 Y5.78
X-8.903 Y5.843
X-8.801 Y5.922
X-8.761 Y5.951
X-8.601 Y6.065
X-8.476 Y6.153
X-8.388 Y6.207
X-8.334 Y6.237
X-8.132 Y6.35
X-8.049 Y6.395
X-7.978 Y6.431
X-7.906 Y6.462
X-7.622 Y6.58
X-7.55 Y6.609
X-7.479 Y6.633
X-7.475 Y6.634
X-7.337 Y6.675
X-7.194 Y6.717
X-7.052 Y6.756
X-6.955 Y6.777
X-6.91 Y6.785
X-6.625 Y6.834
X-6.482 Y6.86
X-6.398 Y6.875
X-6.396
X-6.269 Y6.914
X-6.268 Y6.915
X-6.146 Y6.969
X-6.144 Y6.97
X-6.031 Y7.038
X-6.03 Y7.039
X-5.925 Y7.121
X-5.924 Y7.122
X-5.831 Y7.215
X-5.83 Y7.216
X-5.748 Y7.321
X-5.747 Y7.323
X-5.679 Y7.435
X-5.678 Y7.438
X-5.623 Y7.559
Y7.56
X-5.584 Y7.687
X-5.583 Y7.689
X-5.568 Y7.774
X-5.543 Y7.916
X-5.493 Y8.201
X-5.486 Y8.247
X-5.465 Y8.343
X-5.425 Y8.486
X-5.384 Y8.628
X-5.343 Y8.767
X-5.342 Y8.77
X-5.317 Y8.842
X-5.289 Y8.913
X-5.17 Y9.198
X-5.139 Y9.269
X-5.104 Y9.34
X-5.058 Y9.423
X-4.946 Y9.625
X-4.916 Y9.679
X-4.862 Y9.767
X-4.774 Y9.893
X-4.66 Y10.052
X-4.631 Y10.092
X-4.552 Y10.194
X-4.489 Y10.265
X-4.297 Y10.479
X-4.204 Y10.574
X-4.151 Y10.622
X-3.919 Y10.828
X-3.824 Y10.906
X-3.777 Y10.941
X-3.624 Y11.049
X-3.492 Y11.142
X-3.416 Y11.191
X-3.35 Y11.229
X-3.065 Y11.386
X-2.994 Y11.423
X-2.922 Y11.455
X-2.873 Y11.476
X-2.638 Y11.573
X-2.524 Y11.618
X-2.495 Y11.628
X-2.353 Y11.671
X-2.21 Y11.712
X-2.068 Y11.752
X-2.034 Y11.761
X-1.926 Y11.783
X-1.641 Y11.831
X-1.498 Y11.852
X-1.356 Y11.861
X-1.214 Y11.869
X-1.071 Y11.877
X-1. Y11.879
X-0.929 Y11.877
X-0.786 Y11.869
X-0.644 Y11.861
X-0.502 Y11.852
X-0.359 Y11.831
X-0.074 Y11.783
X0.034 Y11.761
X0.068 Y11.752
X0.21 Y11.712
X0.353 Y11.671
X0.495 Y11.628
X0.524 Y11.618
X0.638 Y11.573
X0.873 Y11.476
X0.922 Y11.455
X0.994 Y11.423
X1.065 Y11.386
X1.35 Y11.229
X1.416 Y11.191
X1.492 Y11.142
X1.624 Y11.049
X1.777 Y10.941
X1.824 Y10.906
X1.919 Y10.828
X2.151 Y10.622
X2.204 Y10.574
X2.297 Y10.479
X2.489 Y10.265
X2.552 Y10.194
X2.631 Y10.092
X2.66 Y10.052
X2.774 Y9.893
X2.862 Y9.767
X2.916 Y9.679
X2.946 Y9.625
X3.058 Y9.423
X3.104 Y9.34
X3.139 Y9.269
X3.17 Y9.198
X3.289 Y8.913
X3.317 Y8.842
X3.342 Y8.77
X3.343 Y8.767
X3.384 Y8.628
X3.425 Y8.486
X3.465 Y8.343
X3.486 Y8.247
X3.493 Y8.201
X3.543 Y7.916
X3.568 Y7.774
X3.583 Y7.689
X3.584 Y7.687
X3.623 Y7.56
Y7.559
X3.678 Y7.438
X3.679 Y7.435
X3.747 Y7.323
X3.748 Y7.321
X3.83 Y7.216
X3.831 Y7.215
X3.924 Y7.122
X3.925 Y7.121
X4.03 Y7.039
X4.031 Y7.038
X4.144 Y6.97
X4.146 Y6.969
X4.268 Y6.915
X4.269 Y6.914
X4.396 Y6.875
X4.398
X4.482 Y6.86
X4.625 Y6.834
X4.91 Y6.785
X4.955 Y6.777
X5.052 Y6.756
X5.194 Y6.717
X5.337 Y6.675
X5.475 Y6.634
X5.479 Y6.633
X5.55 Y6.609
X5.622 Y6.58
X5.906 Y6.462
X5.978 Y6.431
X6.049 Y6.395
X6.132 Y6.35
X6.334 Y6.237
X6.388 Y6.207
X6.476 Y6.153
X6.601 Y6.065
X6.761 Y5.951
X6.801 Y5.922
X6.903 Y5.843
X6.974 Y5.78
X7.188 Y5.588
X7.283 Y5.495
X7.33 Y5.443
X7.537 Y5.21
X7.615 Y5.115
X7.649 Y5.068
X7.757 Y4.915
X7.851 Y4.783
X7.9 Y4.707
X7.938 Y4.641
X8.095 Y4.356
X8.132 Y4.285
X8.164 Y4.214
X8.185 Y4.164
X8.282 Y3.929
X8.327 Y3.815
X8.337 Y3.786
X8.38 Y3.644
X8.42 Y3.502
X8.461 Y3.359
X8.469 Y3.325
X8.491 Y3.217
X8.54 Y2.932
X8.56 Y2.79
X8.57 Y2.647
X8.578 Y2.505
X8.586 Y2.362
X8.587 Y2.291
X8.586 Y2.22
X8.578 Y2.078
X8.57 Y1.935
X8.56 Y1.793
X8.54 Y1.65
X8.491 Y1.366
X8.469 Y1.258
X8.461 Y1.223
X8.42 Y1.081
X8.38 Y0.939
X8.337 Y0.796
X8.327 Y0.768
X8.282 Y0.654
X8.185 Y0.418
X8.164 Y0.369
X8.132 Y0.298
X8.095 Y0.227
X7.938 Y-0.058
X7.9 Y-0.124
X7.851 Y-0.201
X7.757 Y-0.332
X7.649 Y-0.485
X7.615 Y-0.532
X7.537 Y-0.628
X7.33 Y-0.86
X7.283 Y-0.913
X7.188 Y-1.005
X6.974 Y-1.197
X6.903 Y-1.26
X6.801 Y-1.34
X6.761 Y-1.369
X6.601 Y-1.482
X6.476 Y-1.57
X6.388 Y-1.625
X6.334 Y-1.655
X6.132 Y-1.767
X6.049 Y-1.813
X5.978 Y-1.848
X5.906 Y-1.879
X5.622 Y-1.998
X5.55 Y-2.026
X5.479 Y-2.051
X5.475 Y-2.052
X5.337 Y-2.093
X5.194 Y-2.134
X5.052 Y-2.174
X4.955 Y-2.194
X4.91 Y-2.202
X4.625 Y-2.252
X4.482 Y-2.277
X4.398 Y-2.292
X4.396 Y-2.293
X4.269 Y-2.332
X4.268
X4.146 Y-2.386
X4.144 Y-2.388
X4.031 Y-2.455
X4.03 Y-2.457
X3.925 Y-2.538
X3.924 Y-2.54
X3.831 Y-2.632
X3.83 Y-2.634
X3.748 Y-2.738
X3.747 Y-2.74
X3.679 Y-2.853
X3.678 Y-2.855
X3.623 Y-2.976
Y-2.978
X3.584 Y-3.104
X3.583 Y-3.106
X3.568 Y-3.191
X3.543 Y-3.333
X3.493 Y-3.618
X3.486 Y-3.664
X3.465 Y-3.761
X3.425 Y-3.903
X3.384 Y-4.045
X3.343 Y-4.184
X3.342 Y-4.188
X3.317 Y-4.259
X3.289 Y-4.33
X3.17 Y-4.615
X3.139 Y-4.686
X3.104 Y-4.757
X3.058 Y-4.84
X2.946 Y-5.042
X2.916 Y-5.096
X2.862 Y-5.185
X2.774 Y-5.31
X2.66 Y-5.469
X2.631 Y-5.51
X2.552 Y-5.612
X2.489 Y-5.683
X2.297 Y-5.897
X2.204 Y-5.991
X2.151 Y-6.039
X1.919 Y-6.246
X1.824 Y-6.324
X1.777 Y-6.358
X1.624 Y-6.466
X1.492 Y-6.559
X1.416 Y-6.609
X1.35 Y-6.647
X1.065 Y-6.803
X0.994 Y-6.84
X0.922 Y-6.873
X0.873 Y-6.893
X0.638 Y-6.991
X0.524 Y-7.036
X0.495 Y-7.046
X0.353 Y-7.088
X0.21 Y-7.129
X0.068 Y-7.17
X0.034 Y-7.178
X0.001 Y-7.185
X-0.243 Y-7.229 Z-1.401
X-0.487 Y-7.267 Z-1.403
X-0.611 Y-7.277 Z-1.404
X-0.734 Y-7.284 Z-1.406
X-0.981 Y-7.296 Z-1.411
X-1.105 Y-7.293 Z-1.414
X-1.229 Y-7.286 Z-1.417
X-1.352 Y-7.279 Z-1.42
X-1.476 Y-7.271 Z-1.424
X-1.599 Y-7.255 Z-1.427
X-1.721 Y-7.235 Z-1.431
X-1.843 Y-7.214 Z-1.435
X-1.964 Y-7.193 Z-1.44
X-2.085 Y-7.165 Z-1.444
X-2.204 Y-7.131 Z-1.448
X-2.323 Y-7.097 Z-1.453
X-2.442 Y-7.063 Z-1.457
X-2.559 Y-7.023 Z-1.461
X-2.674 Y-6.976 Z-1.466
X-2.788 Y-6.929 Z-1.47
X-2.902 Y-6.881 Z-1.474
X-3.015 Y-6.83 Z-1.479
X-3.124 Y-6.771 Z-1.483
X-3.232 Y-6.711 Z-1.487
X-3.34 Y-6.652 Z-1.492
X-3.447 Y-6.589 Z-1.496
X-3.549 Y-6.519 Z-1.5
X-3.751 Y-6.376 Z-1.509
X-3.851 Y-6.303 Z-1.513
X-3.945 Y-6.223 Z-1.517
X-4.038 Y-6.14 Z-1.522
X-4.13 Y-6.058 Z-1.526
X-4.222 Y-5.975 Z-1.53
X-4.307 Y-5.885 Z-1.535
X-4.39 Y-5.793 Z-1.539
X-4.472 Y-5.701 Z-1.543
X-4.554 Y-5.608 Z-1.548
X-4.631 Y-5.511 Z-1.552
X-4.702 Y-5.41 Z-1.556
X-4.774 Y-5.309 Z-1.561
X-4.846 Y-5.208 Z-1.565
X-4.912 Y-5.104 Z-1.569
X-4.972 Y-4.996 Z-1.573
X-5.032 Y-4.887 Z-1.577
X-5.092 Y-4.779 Z-1.58
X-5.147 Y-4.668 Z-1.583
X-5.196 Y-4.554 Z-1.586
X-5.243 Y-4.44 Z-1.589
X-5.335 Y-4.21 Z-1.594
X-5.37 Y-4.092 Z-1.596
X-5.405 Y-3.973 Z-1.597
X-5.44 Y-3.854 Z-1.598
X-5.471 Y-3.735 Z-1.599
X-5.514 Y-3.498 Z-1.6
X-5.543 Y-3.333
X-5.568 Y-3.191
X-5.583 Y-3.106
X-5.584 Y-3.104
X-5.623 Y-2.978
Y-2.976
X-5.678 Y-2.855
X-5.679 Y-2.853
X-5.747 Y-2.74
X-5.748 Y-2.738
X-5.83 Y-2.634
X-5.831 Y-2.632
X-5.924 Y-2.54
X-5.925 Y-2.538
X-6.03 Y-2.457
X-6.031 Y-2.455
X-6.144 Y-2.388
X-6.146 Y-2.386
X-6.268 Y-2.332
X-6.269
X-6.396 Y-2.293
X-6.398 Y-2.292
X-6.482 Y-2.277
X-6.625 Y-2.252
X-6.91 Y-2.202
X-6.955 Y-2.194
X-7.052 Y-2.174
X-7.194 Y-2.134
X-7.337 Y-2.093
X-7.475 Y-2.052
X-7.479 Y-2.051
X-7.55 Y-2.026
X-7.622 Y-1.998
X-7.906 Y-1.879
X-7.978 Y-1.848
X-8.049 Y-1.813
X-8.132 Y-1.767
X-8.334 Y-1.655
X-8.388 Y-1.625
X-8.476 Y-1.57
X-8.601 Y-1.482
X-8.761 Y-1.369
X-8.801 Y-1.34
X-8.903 Y-1.26
X-8.974 Y-1.197
X-9.188 Y-1.005
X-9.283 Y-0.913
X-9.33 Y-0.86
X-9.537 Y-0.628
X-9.615 Y-0.532
X-9.649 Y-0.485
X-9.757 Y-0.332
X-9.851 Y-0.201
X-9.9 Y-0.124
X-9.938 Y-0.058
X-10.095 Y0.227
X-10.132 Y0.298
X-10.164 Y0.369
X-10.185 Y0.418
X-10.282 Y0.654
X-10.327 Y0.768
X-10.337 Y0.796
X-10.38 Y0.939
X-10.42 Y1.081
X-10.461 Y1.223
X-10.469 Y1.258
X-10.491 Y1.366
X-10.54 Y1.65
X-10.56 Y1.793
X-10.57 Y1.935
X-10.578 Y2.078
X-10.586 Y2.22
X-10.587 Y2.291
X-10.586 Y2.362
X-10.578 Y2.505
X-10.57 Y2.647
X-10.56 Y2.79
X-10.54 Y2.932
X-10.491 Y3.217
X-10.469 Y3.325
X-10.461 Y3.359
X-10.42 Y3.502
X-10.38 Y3.644
X-10.337 Y3.786
X-10.327 Y3.815
X-10.282 Y3.929
X-10.185 Y4.164
X-10.164 Y4.214
X-10.132 Y4.285
X-10.095 Y4.356
X-9.938 Y4.641
X-9.9 Y4.707
X-9.851 Y4.783
X-9.757 Y4.915
X-9.649 Y5.068
X-9.615 Y5.115
X-9.537 Y5.21
X-9.33 Y5.443
X-9.283 Y5.495
X-9.188 Y5.588
X-8.974 Y5.78
X-8.903 Y5.843
X-8.801 Y5.922
X-8.761 Y5.951
X-8.601 Y6.065
X-8.476 Y6.153
X-8.388 Y6.207
X-8.334 Y6.237
X-8.132 Y6.35
X-8.049 Y6.395
X-7.978 Y6.431
X-7.906 Y6.462
X-7.622 Y6.58
X-7.55 Y6.609
X-7.479 Y6.633
X-7.475 Y6.634
X-7.337 Y6.675
X-7.194 Y6.717
X-7.052 Y6.756
X-6.955 Y6.777
X-6.91 Y6.785
X-6.625 Y6.834
X-6.482 Y6.86
X-6.398 Y6.875
X-6.396
X-6.269 Y6.914
X-6.268 Y6.915
X-6.146 Y6.969
X-6.144 Y6.97
X-6.031 Y7.038
X-6.03 Y7.039
X-5.925 Y7.121
X-5.924 Y7.122
X-5.831 Y7.215
X-5.83 Y7.216
X-5.748 Y7.321
X-5.747 Y7.323
X-5.679 Y7.435
X-5.678 Y7.438
X-5.623 Y7.559
Y7.56
X-5.584 Y7.687
X-5.583 Y7.689
X-5.568 Y7.774
X-5.543 Y7.916
X-5.493 Y8.201
X-5.486 Y8.247
X-5.465 Y8.343
X-5.425 Y8.486
X-5.384 Y8.628
X-5.343 Y8.767
X-5.342 Y8.77
X-5.317 Y8.842
X-5.289 Y8.913
X-5.17 Y9.198
X-5.139 Y9.269
X-5.104 Y9.34
X-5.058 Y9.423
X-4.946 Y9.625
X-4.916 Y9.679
X-4.862 Y9.767
X-4.774 Y9.893
X-4.66 Y10.052
X-4.631 Y10.092
X-4.552 Y10.194
X-4.489 Y10.265
X-4.297 Y10.479
X-4.204 Y10.574
X-4.151 Y10.622
X-3.919 Y10.828
X-3.824 Y10.906
X-3.777 Y10.941
X-3.624 Y11.049
X-3.492 Y11.142
X-3.416 Y11.191
X-3.35 Y11.229
X-3.065 Y11.386
X-2.994 Y11.423
X-2.922 Y11.455
X-2.873 Y11.476
X-2.638 Y11.573
X-2.524 Y11.618
X-2.495 Y11.628
X-2.353 Y11.671
X-2.21 Y11.712
X-2.068 Y11.752
X-2.034 Y11.761
X-1.926 Y11.783
X-1.641 Y11.831
X-1.498 Y11.852
X-1.356 Y11.861
X-1.214 Y11.869
X-1.071 Y11.877
X-1. Y11.879
X-0.929 Y11.877
X-0.786 Y11.869
X-0.644 Y11.861
X-0.502 Y11.852
X-0.359 Y11.831
X-0.074 Y11.783
X0.034 Y11.761
X0.068 Y11.752
X0.21 Y11.712
X0.353 Y11.671
X0.495 Y11.628
X0.524 Y11.618
X0.638 Y11.573
X0.873 Y11.476
X0.922 Y11.455
X0.994 Y11.423
X1.065 Y11.386
X1.35 Y11.229
X1.416 Y11.191
X1.492 Y11.142
X1.624 Y11.049
X1.777 Y10.941
X1.824 Y10.906
X1.919 Y10.828
X2.151 Y10.622
X2.204 Y10.574
X2.297 Y10.479
X2.489 Y10.265
X2.552 Y10.194
X2.631 Y10.092
X2.66 Y10.052
X2.774 Y9.893
X2.862 Y9.767
X2.916 Y9.679
X2.946 Y9.625
X3.058 Y9.423
X3.104 Y9.34
X3.139 Y9.269
X3.17 Y9.198
X3.289 Y8.913
X3.317 Y8.842
X3.342 Y8.77
X3.343 Y8.767
X3.384 Y8.628
X3.425 Y8.486
X3.465 Y8.343
X3.486 Y8.247
X3.493 Y8.201
X3.543 Y7.916
X3.568 Y7.774
X3.583 Y7.689
X3.584 Y7.687
X3.623 Y7.56
Y7.559
X3.678 Y7.438
X3.679 Y7.435
X3.747 Y7.323
X3.748 Y7.321
X3.83 Y7.216
X3.831 Y7.215
X3.924 Y7.122
X3.925 Y7.121
X4.03 Y7.039
X4.031 Y7.038
X4.144 Y6.97
X4.146 Y6.969
X4.268 Y6.915
X4.269 Y6.914
X4.396 Y6.875
X4.398
X4.482 Y6.86
X4.625 Y6.834
X4.91 Y6.785
X4.955 Y6.777
X5.052 Y6.756
X5.194 Y6.717
X5.337 Y6.675
X5.475 Y6.634
X5.479 Y6.633
X5.55 Y6.609
X5.622 Y6.58
X5.906 Y6.462
X5.978 Y6.431
X6.049 Y6.395
X6.132 Y6.35
X6.334 Y6.237
X6.388 Y6.207
X6.476 Y6.153
X6.601 Y6.065
X6.761 Y5.951
X6.801 Y5.922
X6.903 Y5.843
X6.974 Y5.78
X7.188 Y5.588
X7.283 Y5.495
X7.33 Y5.443
X7.537 Y5.21
X7.615 Y5.115
X7.649 Y5.068
X7.757 Y4.915
X7.851 Y4.783
X7.9 Y4.707
X7.938 Y4.641
X8.095 Y4.356
X8.132 Y4.285
X8.164 Y4.214
X8.185 Y4.164
X8.282 Y3.929
X8.327 Y3.815
X8.337 Y3.786
X8.38 Y3.644
X8.42 Y3.502
X8.461 Y3.359
X8.469 Y3.325
X8.491 Y3.217
X8.54 Y2.932
X8.56 Y2.79
X8.57 Y2.647
X8.578 Y2.505
X8.586 Y2.362
X8.587 Y2.291
X8.586 Y2.22
X8.578 Y2.078
X8.57 Y1.935
X8.56 Y1.793
X8.54 Y1.65
X8.491 Y1.366
X8.469 Y1.258
X8.461 Y1.223
X8.42 Y1.081
X8.38 Y0.939
X8.337 Y0.796
X8.327 Y0.768
X8.282 Y0.654
X8.185 Y0.418
X8.164 Y0.369
X8.132 Y0.298
X8.095 Y0.227
X7.938 Y-0.058
X7.9 Y-0.124
X7.851 Y-0.201
X7.757 Y-0.332
X7.649 Y-0.485
X7.615 Y-0.532
X7.537 Y-0.628
X7.33 Y-0.86
X7.283 Y-0.913
X7.188 Y-1.005
X6.974 Y-1.197
X6.903 Y-1.26
X6.801 Y-1.34
X6.761 Y-1.369
X6.601 Y-1.482
X6.476 Y-1.57
X6.388 Y-1.625
X6.334 Y-1.655
X6.132 Y-1.767
X6.049 Y-1.813
X5.978 Y-1.848
X5.906 Y-1.879
X5.622 Y-1.998
X5.55 Y-2.026
X5.479 Y-2.051
X5.475 Y-2.052
X5.337 Y-2.093
X5.194 Y-2.134
X5.052 Y-2.174
X4.955 Y-2.194
X4.91 Y-2.202
X4.625 Y-2.252
X4.482 Y-2.277
X4.398 Y-2.292
X4.396 Y-2.293
X4.269 Y-2.332
X4.268
X4.146 Y-2.386
X4.144 Y-2.388
X4.031 Y-2.455
X4.03 Y-2.457
X3.925 Y-2.538
X3.924 Y-2.54
X3.831 Y-2.632
X3.83 Y-2.634
X3.748 Y-2.738
X3.747 Y-2.74
X3.679 Y-2.853
X3.678 Y-2.855
X3.623 Y-2.976
Y-2.978
X3.584 Y-3.104
X3.583 Y-3.106
X3.568 Y-3.191
X3.543 Y-3.333
X3.493 Y-3.618
X3.486 Y-3.664
X3.465 Y-3.761
X3.425 Y-3.903
X3.384 Y-4.045
X3.343 Y-4.184
X3.342 Y-4.188
X3.317 Y-4.259
X3.289 Y-4.33
X3.17 Y-4.615
X3.139 Y-4.686
X3.104 Y-4.757
X3.058 Y-4.84
X2.946 Y-5.042
X2.916 Y-5.096
X2.862 Y-5.185
X2.774 Y-5.31
X2.66 Y-5.469
X2.631 Y-5.51
X2.552 Y-5.612
X2.489 Y-5.683
X2.297 Y-5.897
X2.204 Y-5.991
X2.151 Y-6.039
X1.919 Y-6.246
X1.824 Y-6.324
X1.777 Y-6.358
X1.624 Y-6.466
X1.492 Y-6.559
X1.416 Y-6.609
X1.35 Y-6.647
X1.065 Y-6.803
X0.994 Y-6.84
X0.922 Y-6.873
X0.873 Y-6.893
X0.638 Y-6.991
X0.524 Y-7.036
X0.495 Y-7.046
X0.353 Y-7.088
X0.21 Y-7.129
X0.068 Y-7.17
X0.034 Y-7.178
X-0.074 Y-7.2
X-0.359 Y-7.248
X-0.502 Y-7.269
X-0.644 Y-7.279
X-0.786 Y-7.287
X-0.929 Y-7.295
X-1. Y-7.296
X-1.071 Y-7.295
X-1.214 Y-7.287
X-1.356 Y-7.279
X-1.498 Y-7.269
X-1.641 Y-7.248
X-1.926 Y-7.2
X-2.034 Y-7.178
X-2.068 Y-7.17
X-2.21 Y-7.129
X-2.353 Y-7.088
X-2.495 Y-7.046
X-2.524 Y-7.036
X-2.638 Y-6.991
X-2.873 Y-6.893
X-2.922 Y-6.873
X-2.994 Y-6.84
X-3.065 Y-6.803
X-3.35 Y-6.647
X-3.416 Y-6.609
X-3.492 Y-6.559
X-3.624 Y-6.466
X-3.777 Y-6.358
X-3.824 Y-6.324
X-3.919 Y-6.246
X-4.151 Y-6.039
X-4.204 Y-5.991
X-4.297 Y-5.897
X-4.489 Y-5.683
X-4.552 Y-5.612
X-4.631 Y-5.51
X-4.66 Y-5.469
X-4.774 Y-5.31
X-4.862 Y-5.185
X-4.916 Y-5.096
X-4.946 Y-5.042
X-5.058 Y-4.84
X-5.104 Y-4.757
X-5.139 Y-4.686
X-5.17 Y-4.615
X-5.289 Y-4.33
X-5.317 Y-4.259
X-5.342 Y-4.188
X-5.343 Y-4.184
X-5.384 Y-4.045
X-5.425 Y-3.903
X-5.465 Y-3.761
X-5.486 Y-3.664
X-5.493 Y-3.618
X-5.514 Y-3.498
X-5.557 Y-3.254 Z-1.601
X-5.579 Y-3.132 Z-1.602
X-5.583 Y-3.109
Y-3.106
X-5.594 Y-3.072
X-5.612 Y-3.013 Z-1.603
X-5.622 Y-2.98
X-5.623 Y-2.976
X-5.633 Y-2.955 Z-1.604
X-5.658 Y-2.899
X-5.677 Y-2.856 Z-1.605
X-5.679 Y-2.853
X-5.685 Y-2.843
X-5.717 Y-2.79 Z-1.606
X-5.745 Y-2.743 Z-1.607
X-5.747 Y-2.74
X-5.749 Y-2.737
X-5.787 Y-2.688 Z-1.609
X-5.828 Y-2.637 Z-1.61
X-5.83 Y-2.633
X-5.846 Y-2.617
X-5.868 Y-2.595 Z-1.611
X-5.923 Y-2.541 Z-1.613
X-5.926 Y-2.538
X-5.935 Y-2.531
X-5.959 Y-2.512 Z-1.614
X-6.02 Y-2.464 Z-1.616
X-6.029 Y-2.457
X-6.033 Y-2.455
X-6.059 Y-2.439 Z-1.617
X-6.112 Y-2.407 Z-1.618
X-6.145 Y-2.387 Z-1.619
X-6.149 Y-2.385 Z-1.62
X-6.166 Y-2.377
X-6.223 Y-2.352 Z-1.622
X-6.269 Y-2.332 Z-1.623
X-6.28 Y-2.328 Z-1.624
X-6.339 Y-2.31 Z-1.625
X-6.394 Y-2.293 Z-1.627
X-6.398 Y-2.292
X-6.429 Y-2.287 Z-1.628
X-6.459 Y-2.281 Z-1.629
X-6.52 Y-2.27 Z-1.631
X-6.642 Y-2.249 Z-1.635
X-6.764 Y-2.227 Z-1.64
X-6.886 Y-2.206 Z-1.644
X-7.007 Y-2.184 Z-1.648
X-7.127 Y-2.154 Z-1.653
X-7.246 Y-2.119 Z-1.657
X-7.365 Y-2.084 Z-1.661
X-7.484 Y-2.049 Z-1.666
X-7.6 Y-2.007 Z-1.67
X-7.714 Y-1.959 Z-1.674
X-7.828 Y-1.912 Z-1.679
X-7.942 Y-1.864 Z-1.683
X-8.054 Y-1.81 Z-1.687
X-8.162 Y-1.75 Z-1.692
X-8.378 Y-1.63 Z-1.7
X-8.484 Y-1.565 Z-1.704
X-8.585 Y-1.494 Z-1.709
X-8.686 Y-1.422 Z-1.713
X-8.787 Y-1.35 Z-1.717
X-8.885 Y-1.275 Z-1.722
X-8.978 Y-1.194 Z-1.726
X-9.07 Y-1.111 Z-1.73
X-9.162 Y-1.028 Z-1.735
X-9.253 Y-0.944 Z-1.739
X-9.337 Y-0.853 Z-1.743
X-9.419 Y-0.76 Z-1.748
X-9.501 Y-0.668 Z-1.752
X-9.582 Y-0.574 Z-1.756
X-9.656 Y-0.475 Z-1.761
X-9.728 Y-0.374 Z-1.765
X-9.799 Y-0.273 Z-1.769
X-9.87 Y-0.172 Z-1.773
X-9.934 Y-0.066 Z-1.777
X-9.993 Y0.043 Z-1.78
X-10.053 Y0.151 Z-1.783
X-10.112 Y0.26 Z-1.786
X-10.165 Y0.372 Z-1.789
X-10.26 Y0.6 Z-1.794
X-10.307 Y0.715 Z-1.796
X-10.348 Y0.831 Z-1.797
X-10.417 Y1.069 Z-1.799
X-10.478 Y1.302 Z-1.8
X-10.491 Y1.366
X-10.54 Y1.65
X-10.56 Y1.793
X-10.57 Y1.935
X-10.578 Y2.078
X-10.586 Y2.22
X-10.587 Y2.291
X-10.586 Y2.362
X-10.578 Y2.505
X-10.57 Y2.647
X-10.56 Y2.79
X-10.54 Y2.932
X-10.491 Y3.217
X-10.469 Y3.325
X-10.461 Y3.359
X-10.42 Y3.502
X-10.38 Y3.644
X-10.337 Y3.786
X-10.327 Y3.815
X-10.282 Y3.929
X-10.185 Y4.164
X-10.164 Y4.214
X-10.132 Y4.285
X-10.095 Y4.356
X-9.938 Y4.641
X-9.9 Y4.707
X-9.851 Y4.783
X-9.757 Y4.915
X-9.649 Y5.068
X-9.615 Y5.115
X-9.537 Y5.21
X-9.33 Y5.443
X-9.283 Y5.495
X-9.188 Y5.588
X-8.974 Y5.78
X-8.903 Y5.843
X-8.801 Y5.922
X-8.761 Y5.951
X-8.601 Y6.065
X-8.476 Y6.153
X-8.388 Y6.207
X-8.334 Y6.237
X-8.132 Y6.35
X-8.049 Y6.395
X-7.978 Y6.431
X-7.906 Y6.462
X-7.622 Y6.58
X-7.55 Y6.609
X-7.479 Y6.633
X-7.475 Y6.634
X-7.337 Y6.675
X-7.194 Y6.717
X-7.052 Y6.756
X-6.955 Y6.777
X-6.91 Y6.785
X-6.625 Y6.834
X-6.482 Y6.86
X-6.398 Y6.875
X-6.396
X-6.269 Y6.914
X-6.268 Y6.915
X-6.146 Y6.969
X-6.144 Y6.97
X-6.031 Y7.038
X-6.03 Y7.039
X-5.925 Y7.121
X-5.924 Y7.122
X-5.831 Y7.215
X-5.83 Y7.216
X-5.748 Y7.321
X-5.747 Y7.323
X-5.679 Y7.435
X-5.678 Y7.438
X-5.623 Y7.559
Y7.56
X-5.584 Y7.687
X-5.583 Y7.689
X-5.568 Y7.774
X-5.543 Y7.916
X-5.493 Y8.201
X-5.486 Y8.247
X-5.465 Y8.343
X-5.425 Y8.486
X-5.384 Y8.628
X-5.343 Y8.767
X-5.342 Y8.77
X-5.317 Y8.842
X-5.289 Y8.913
X-5.17 Y9.198
X-5.139 Y9.269
X-5.104 Y9.34
X-5.058 Y9.423
X-4.946 Y9.625
X-4.916 Y9.679
X-4.862 Y9.767
X-4.774 Y9.893
X-4.66 Y10.052
X-4.631 Y10.092
X-4.552 Y10.194
X-4.489 Y10.265
X-4.297 Y10.479
X-4.204 Y10.574
X-4.151 Y10.622
X-3.919 Y10.828
X-3.824 Y10.906
X-3.777 Y10.941
X-3.624 Y11.049
X-3.492 Y11.142
X-3.416 Y11.191
X-3.35 Y11.229
X-3.065 Y11.386
X-2.994 Y11.423
X-2.922 Y11.455
X-2.873 Y11.476
X-2.638 Y11.573
X-2.524 Y11.618
X-2.495 Y11.628
X-2.353 Y11.671
X-2.21 Y11.712
X-2.068 Y11.752
X-2.034 Y11.761
X-1.926 Y11.783
X-1.641 Y11.831
X-1.498 Y11.852
X-1.356 Y11.861
X-1.214 Y11.869
X-1.071 Y11.877
X-1. Y11.879
X-0.929 Y11.877
X-0.786 Y11.869
X-0.644 Y11.861
X-0.502 Y11.852
X-0.359 Y11.831
X-0.074 Y11.783
X0.034 Y11.761
X0.068 Y11.752
X0.21 Y11.712
X0.353 Y11.671
X0.495 Y11.628
X0.524 Y11.618
X0.638 Y11.573
X0.873 Y11.476
X0.922 Y11.455
X0.994 Y11.423
X1.065 Y11.386
X1.35 Y11.229
X1.416 Y11.191
X1.492 Y11.142
X1.624 Y11.049
X1.777 Y10.941
X1.824 Y10.906
X1.919 Y10.828
X2.151 Y10.622
X2.204 Y10.574
X2.297 Y10.479
X2.489 Y10.265
X2.552 Y10.194
X2.631 Y10.092
X2.66 Y10.052
X2.774 Y9.893
X2.862 Y9.767
X2.916 Y9.679
X2.946 Y9.625
X3.058 Y9.423
X3.104 Y9.34
X3.139 Y9.269
X3.17 Y9.198
X3.289 Y8.913
X3.317 Y8.842
X3.342 Y8.77
X3.343 Y8.767
X3.384 Y8.628
X3.425 Y8.486
X3.465 Y8.343
X3.486 Y8.247
X3.493 Y8.201
X3.543 Y7.916
X3.568 Y7.774
X3.583 Y7.689
X3.584 Y7.687
X3.623 Y7.56
Y7.559
X3.678 Y7.438
X3.679 Y7.435
X3.747 Y7.323
X3.748 Y7.321
X3.83 Y7.216
X3.831 Y7.215
X3.924 Y7.122
X3.925 Y7.121
X4.03 Y7.039
X4.031 Y7.038
X4.144 Y6.97
X4.146 Y6.969
X4.268 Y6.915
X4.269 Y6.914
X4.396 Y6.875
X4.398
X4.482 Y6.86
X4.625 Y6.834
X4.91 Y6.785
X4.955 Y6.777
X5.052 Y6.756
X5.194 Y6.717
X5.337 Y6.675
X5.475 Y6.634
X5.479 Y6.633
X5.55 Y6.609
X5.622 Y6.58
X5.906 Y6.462
X5.978 Y6.431
X6.049 Y6.395
X6.132 Y6.35
X6.334 Y6.237
X6.388 Y6.207
X6.476 Y6.153
X6.601 Y6.065
X6.761 Y5.951
X6.801 Y5.922
X6.903 Y5.843
X6.974 Y5.78
X7.188 Y5.588
X7.283 Y5.495
X7.33 Y5.443
X7.537 Y5.21
X7.615 Y5.115
X7.649 Y5.068
X7.757 Y4.915
X7.851 Y4.783
X7.9 Y4.707
X7.938 Y4.641
X8.095 Y4.356
X8.132 Y4.285
X8.164 Y4.214
X8.185 Y4.164
X8.282 Y3.929
X8.327 Y3.815
X8.337 Y3.786
X8.38 Y3.644
X8.42 Y3.502
X8.461 Y3.359
X8.469 Y3.325
X8.491 Y3.217
X8.54 Y2.932
X8.56 Y2.79
X8.57 Y2.647
X8.578 Y2.505
X8.586 Y2.362
X8.587 Y2.291
X8.586 Y2.22
X8.578 Y2.078
X8.57 Y1.935
X8.56 Y1.793
X8.54 Y1.65
X8.491 Y1.366
X8.469 Y1.258
X8.461 Y1.223
X8.42 Y1.081
X8.38 Y0.939
X8.337 Y0.796
X8.327 Y0.768
X8.282 Y0.654
X8.185 Y0.418
X8.164 Y0.369
X8.132 Y0.298
X8.095 Y0.227
X7.938 Y-0.058
X7.9 Y-0.124
X7.851 Y-0.201
X7.757 Y-0.332
X7.649 Y-0.485
X7.615 Y-0.532
X7.537 Y-0.628
X7.33 Y-0.86
X7.283 Y-0.913
X7.188 Y-1.005
X6.974 Y-1.197
X6.903 Y-1.26
X6.801 Y-1.34
X6.761 Y-1.369
X6.601 Y-1.482
X6.476 Y-1.57
X6.388 Y-1.625
X6.334 Y-1.655
X6.132 Y-1.767
X6.049 Y-1.813
X5.978 Y-1.848
X5.906 Y-1.879
X5.622 Y-1.998
X5.55 Y-2.026
X5.479 Y-2.051
X5.475 Y-2.052
X5.337 Y-2.093
X5.194 Y-2.134
X5.052 Y-2.174
X4.955 Y-2.194
X4.91 Y-2.202
X4.625 Y-2.252
X4.482 Y-2.277
X4.398 Y-2.292
X4.396 Y-2.293
X4.269 Y-2.332
X4.268
X4.146 Y-2.386
X4.144 Y-2.388
X4.031 Y-2.455
X4.03 Y-2.457
X3.925 Y-2.538
X3.924 Y-2.54
X3.831 Y-2.632
X3.83 Y-2.634
X3.748 Y-2.738
X3.747 Y-2.74
X3.679 Y-2.853
X3.678 Y-2.855
X3.623 Y-2.976
Y-2.978
X3.584 Y-3.104
X3.583 Y-3.106
X3.568 Y-3.191
X3.543 Y-3.333
X3.493 Y-3.618
X3.486 Y-3.664
X3.465 Y-3.761
X3.425 Y-3.903
X3.384 Y-4.045
X3.343 Y-4.184
X3.342 Y-4.188
X3.317 Y-4.259
X3.289 Y-4.33
X3.17 Y-4.615
X3.139 Y-4.686
X3.104 Y-4.757
X3.058 Y-4.84
X2.946 Y-5.042
X2.916 Y-5.096
X2.862 Y-5.185
X2.774 Y-5.31
X2.66 Y-5.469
X2.631 Y-5.51
X2.552 Y-5.612
X2.489 Y-5.683
X2.297 Y-5.897
X2.204 Y-5.991
X2.151 Y-6.039
X1.919 Y-6.246
X1.824 Y-6.324
X1.777 Y-6.358
X1.624 Y-6.466
X1.492 Y-6.559
X1.416 Y-6.609
X1.35 Y-6.647
X1.065 Y-6.803
X0.994 Y-6.84
X0.922 Y-6.873
X0.873 Y-6.893
X0.638 Y-6.991
X0.524 Y-7.036
X0.495 Y-7.046
X0.353 Y-7.088
X0.21 Y-7.129
X0.068 Y-7.17
X0.034 Y-7.178
X-0.074 Y-7.2
X-0.359 Y-7.248
X-0.502 Y-7.269
X-0.644 Y-7.279
X-0.786 Y-7.287
X-0.929 Y-7.295
X-1. Y-7.296
X-1.071 Y-7.295
X-1.214 Y-7.287
X-1.356 Y-7.279
X-1.498 Y-7.269
X-1.641 Y-7.248
X-1.926 Y-7.2
X-2.034 Y-7.178
X-2.068 Y-7.17
X-2.21 Y-7.129
X-2.353 Y-7.088
X-2.495 Y-7.046
X-2.524 Y-7.036
X-2.638 Y-6.991
X-2.873 Y-6.893
X-2.922 Y-6.873
X-2.994 Y-6.84
X-3.065 Y-6.803
X-3.35 Y-6.647
X-3.416 Y-6.609
X-3.492 Y-6.559
X-3.624 Y-6.466
X-3.777 Y-6.358
X-3.824 Y-6.324
X-3.919 Y-6.246
X-4.151 Y-6.039
X-4.204 Y-5.991
X-4.297 Y-5.897
X-4.489 Y-5.683
X-4.552 Y-5.612
X-4.631 Y-5.51
X-4.66 Y-5.469
X-4.774 Y-5.31
X-4.862 Y-5.185
X-4.916 Y-5.096
X-4.946 Y-5.042
X-5.058 Y-4.84
X-5.104 Y-4.757
X-5.139 Y-4.686
X-5.17 Y-4.615
X-5.289 Y-4.33
X-5.317 Y-4.259
X-5.342 Y-4.188
X-5.343 Y-4.184
X-5.384 Y-4.045
X-5.425 Y-3.903
X-5.465 Y-3.761
X-5.486 Y-3.664
X-5.493 Y-3.618
X-5.543 Y-3.333
X-5.568 Y-3.191
X-5.583 Y-3.106
X-5.584 Y-3.104
X-5.623 Y-2.978
Y-2.976
X-5.678 Y-2.855
X-5.679 Y-2.853
X-5.747 Y-2.74
X-5.748 Y-2.738
X-5.83 Y-2.634
X-5.831 Y-2.632
X-5.924 Y-2.54
X-5.925 Y-2.538
X-6.03 Y-2.457
X-6.031 Y-2.455
X-6.144 Y-2.388
X-6.146 Y-2.386
X-6.268 Y-2.332
X-6.269
X-6.396 Y-2.293
X-6.398 Y-2.292
X-6.482 Y-2.277
X-6.625 Y-2.252
X-6.91 Y-2.202
X-6.955 Y-2.194
X-7.052 Y-2.174
X-7.194 Y-2.134
X-7.337 Y-2.093
X-7.475 Y-2.052
X-7.479 Y-2.051
X-7.55 Y-2.026
X-7.622 Y-1.998
X-7.906 Y-1.879
X-7.978 Y-1.848
X-8.049 Y-1.813
X-8.132 Y-1.767
X-8.334 Y-1.655
X-8.388 Y-1.625
X-8.476 Y-1.57
X-8.601 Y-1.482
X-8.761 Y-1.369
X-8.801 Y-1.34
X-8.903 Y-1.26
X-8.974 Y-1.197
X-9.188 Y-1.005
X-9.283 Y-0.913
X-9.33 Y-0.86
X-9.537 Y-0.628
X-9.615 Y-0.532
X-9.649 Y-0.485
X-9.757 Y-0.332
X-9.851 Y-0.201
X-9.9 Y-0.124
X-9.938 Y-0.058
X-10.095 Y0.227
X-10.132 Y0.298
X-10.164 Y0.369
X-10.185 Y0.418
X-10.282 Y0.654
X-10.327 Y0.768
X-10.337 Y0.796
X-10.38 Y0.939
X-10.42 Y1.081
X-10.461 Y1.223
X-10.469 Y1.258
X-10.478 Y1.302
X-10.522 Y1.545 Z-1.801
X-10.56 Y1.79 Z-1.803
X-10.569 Y1.913 Z-1.804
X-10.576 Y2.037 Z-1.806
X-10.587 Y2.284 Z-1.811
X-10.583 Y2.408 Z-1.814
X-10.577 Y2.531 Z-1.817
X-10.57 Y2.655 Z-1.82
X-10.561 Y2.778 Z-1.824
X-10.545 Y2.901 Z-1.827
X-10.524 Y3.023 Z-1.831
X-10.503 Y3.145 Z-1.835
X-10.482 Y3.267 Z-1.84
X-10.453 Y3.387 Z-1.844
X-10.419 Y3.506 Z-1.848
X-10.385 Y3.625 Z-1.853
X-10.351 Y3.744 Z-1.857
X-10.31 Y3.861 Z-1.861
X-10.263 Y3.975 Z-1.866
X-10.216 Y4.089 Z-1.87
X-10.168 Y4.204 Z-1.874
X-10.116 Y4.316 Z-1.879
X-10.057 Y4.425 Z-1.883
X-9.997 Y4.533 Z-1.887
X-9.937 Y4.641 Z-1.892
X-9.874 Y4.748 Z-1.896
X-9.804 Y4.85 Z-1.9
X-9.661 Y5.052 Z-1.909
X-9.587 Y5.151 Z-1.913
X-9.506 Y5.245 Z-1.917
X-9.424 Y5.337 Z-1.922
X-9.342 Y5.43 Z-1.926
X-9.258 Y5.521 Z-1.93
X-9.168 Y5.606 Z-1.935
X-9.076 Y5.688 Z-1.939
X-8.984 Y5.771 Z-1.943
X-8.891 Y5.853 Z-1.948
X-8.793 Y5.928 Z-1.952
X-8.692 Y6. Z-1.956
X-8.591 Y6.072 Z-1.961
X-8.49 Y6.143 Z-1.965
X-8.385 Y6.209 Z-1.969
X-8.277 Y6.269 Z-1.973
X-8.169 Y6.329 Z-1.977
X-8.061 Y6.389 Z-1.98
X-7.95 Y6.443 Z-1.983
X-7.835 Y6.491 Z-1.986
X-7.721 Y6.539 Z-1.989
X-7.491 Y6.629 Z-1.994
X-7.372 Y6.665 Z-1.996
X-7.254 Y6.699 Z-1.997
X-7.135 Y6.734 Z-1.998
X-7.015 Y6.765 Z-1.999
X-6.778 Y6.808 Z-2.
X-6.625 Y6.834
X-6.482 Y6.86
X-6.398 Y6.875
X-6.396
X-6.269 Y6.914
X-6.268 Y6.915
X-6.146 Y6.969
X-6.144 Y6.97
X-6.031 Y7.038
X-6.03 Y7.039
X-5.925 Y7.121
X-5.924 Y7.122
X-5.831 Y7.215
X-5.83 Y7.216
X-5.748 Y7.321
X-5.747 Y7.323
X-5.679 Y7.435
X-5.678 Y7.438
X-5.623 Y7.559
Y7.56
X-5.584 Y7.687
X-5.583 Y7.689
X-5.568 Y7.774
X-5.543 Y7.916
X-5.493 Y8.201
X-5.486 Y8.247
X-5.465 Y8.343
X-5.425 Y8.486
X-5.384 Y8.628
X-5.343 Y8.767
X-5.342 Y8.77
X-5.317 Y8.842
X-5.289 Y8.913
X-5.17 Y9.198
X-5.139 Y9.269
X-5.104 Y9.34
X-5.058 Y9.423
X-4.946 Y9.625
X-4.916 Y9.679
X-4.862 Y9.767
X-4.774 Y9.893
X-4.66 Y10.052
X-4.631 Y10.092
X-4.552 Y10.194
X-4.489 Y10.265
X-4.297 Y10.479
X-4.204 Y10.574
X-4.151 Y10.622
X-3.919 Y10.828
X-3.824 Y10.906
X-3.777 Y10.941
X-3.624 Y11.049
X-3.492 Y11.142
X-3.416 Y11.191
X-3.35 Y11.229
X-3.065 Y11.386
X-2.994 Y11.423
X-2.922 Y11.455
X-2.873 Y11.476
X-2.638 Y11.573
X-2.524 Y11.618
X-2.495 Y11.628
X-2.353 Y11.671
X-2.21 Y11.712
X-2.068 Y11.752
X-2.034 Y11.761
X-1.926 Y11.783
X-1.641 Y11.831
X-1.498 Y11.852
X-1.356 Y11.861
X-1.214 Y11.869
X-1.071 Y11.877
X-1. Y11.879
X-0.929 Y11.877
X-0.786 Y11.869
X-0.644 Y11.861
X-0.502 Y11.852
X-0.359 Y11.831
X-0.074 Y11.783
X0.034 Y11.761
X0.068 Y11.752
X0.21 Y11.712
X0.353 Y11.671
X0.495 Y11.628
X0.524 Y11.618
X0.638 Y11.573
X0.873 Y11.476
X0.922 Y11.455
X0.994 Y11.423
X1.065 Y11.386
X1.35 Y11.229
X1.416 Y11.191
X1.492 Y11.142
X1.624 Y11.049
X1.777 Y10.941
X1.824 Y10.906
X1.919 Y10.828
X2.151 Y10.622
X2.204 Y10.574
X2.297 Y10.479
X2.489 Y10.265
X2.552 Y10.194
X2.631 Y10.092
X2.66 Y10.052
X2.774 Y9.893
X2.862 Y9.767
X2.916 Y9.679
X2.946 Y9.625
X3.058 Y9.423
X3.104 Y9.34
X3.139 Y9.269
X3.17 Y9.198
X3.289 Y8.913
X3.317 Y8.842
X3.342 Y8.77
X3.343 Y8.767
X3.384 Y8.628
X3.425 Y8.486
X3.465 Y8.343
X3.486 Y8.247
X3.493 Y8.201
X3.543 Y7.916
X3.568 Y7.774
X3.583 Y7.689
X3.584 Y7.687
X3.623 Y7.56
Y7.559
X3.678 Y7.438
X3.679 Y7.435
X3.747 Y7.323
X3.748 Y7.321
X3.83 Y7.216
X3.831 Y7.215
X3.924 Y7.122
X3.925 Y7.121
X4.03 Y7.039
X4.031 Y7.038
X4.144 Y6.97
X4.146 Y6.969
X4.268 Y6.915
X4.269 Y6.914
X4.396 Y6.875
X4.398
X4.482 Y6.86
X4.625 Y6.834
X4.91 Y6.785
X4.955 Y6.777
X5.052 Y6.756
X5.194 Y6.717
X5.337 Y6.675
X5.475 Y6.634
X5.479 Y6.633
X5.55 Y6.609
X5.622 Y6.58
X5.906 Y6.462
X5.978 Y6.431
X6.049 Y6.395
X6.132 Y6.35
X6.334 Y6.237
X6.388 Y6.207
X6.476 Y6.153
X6.601 Y6.065
X6.761 Y5.951
X6.801 Y5.922
X6.903 Y5.843
X6.974 Y5.78
X7.188 Y5.588
X7.283 Y5.495
X7.33 Y5.443
X7.537 Y5.21
X7.615 Y5.115
X7.649 Y5.068
X7.757 Y4.915
X7.851 Y4.783
X7.9 Y4.707
X7.938 Y4.641
X8.095 Y4.356
X8.132 Y4.285
X8.164 Y4.214
X8.185 Y4.164
X8.282 Y3.929
X8.327 Y3.815
X8.337 Y3.786
X8.38 Y3.644
X8.42 Y3.502
X8.461 Y3.359
X8.469 Y3.325
X8.491 Y3.217
X8.54 Y2.932
X8.56 Y2.79
X8.57 Y2.647
X8.578 Y2.505
X8.586 Y2.362
X8.587 Y2.291
X8.586 Y2.22
X8.578 Y2.078
X8.57 Y1.935
X8.56 Y1.793
X8.54 Y1.65
X8.491 Y1.366
X8.469 Y1.258
X8.461 Y1.223
X8.42 Y1.081
X8.38 Y0.939
X8.337 Y0.796
X8.327 Y0.768
X8.282 Y0.654
X8.185 Y0.418
X8.164 Y0.369
X8.132 Y0.298
X8.095 Y0.227
X7.938 Y-0.058
X7.9 Y-0.124
X7.851 Y-0.201
X7.757 Y-0.332
X7.649 Y-0.485
X7.615 Y-0.532
X7.537 Y-0.628
X7.33 Y-0.86
X7.283 Y-0.913
X7.188 Y-1.005
X6.974 Y-1.197
X6.903 Y-1.26
X6.801 Y-1.34
X6.761 Y-1.369
X6.601 Y-1.482
X6.476 Y-1.57
X6.388 Y-1.625
X6.334 Y-1.655
X6.132 Y-1.767
X6.049 Y-1.813
X5.978 Y-1.848
X5.906 Y-1.879
X5.622 Y-1.998
X5.55 Y-2.026
X5.479 Y-2.051
X5.475 Y-2.052
X5.337 Y-2.093
X5.194 Y-2.134
X5.052 Y-2.174
X4.955 Y-2.194
X4.91 Y-2.202
X4.625 Y-2.252
X4.482 Y-2.277
X4.398 Y-2.292
X4.396 Y-2.293
X4.269 Y-2.332
X4.268
X4.146 Y-2.386
X4.144 Y-2.388
X4.031 Y-2.455
X4.03 Y-2.457
X3.925 Y-2.538
X3.924 Y-2.54
X3.831 Y-2.632
X3.83 Y-2.634
X3.748 Y-2.738
X3.747 Y-2.74
X3.679 Y-2.853
X3.678 Y-2.855
X3.623 Y-2.976
Y-2.978
X3.584 Y-3.104
X3.583 Y-3.106
X3.568 Y-3.191
X3.543 Y-3.333
X3.493 Y-3.618
X3.486 Y-3.664
X3.465 Y-3.761
X3.425 Y-3.903
X3.384 Y-4.045
X3.343 Y-4.184
X3.342 Y-4.188
X3.317 Y-4.259
X3.289 Y-4.33
X3.17 Y-4.615
X3.139 Y-4.686
X3.104 Y-4.757
X3.058 Y-4.84
X2.946 Y-5.042
X2.916 Y-5.096
X2.862 Y-5.185
X2.774 Y-5.31
X2.66 Y-5.469
X2.631 Y-5.51
X2.552 Y-5.612
X2.489 Y-5.683
X2.297 Y-5.897
X2.204 Y-5.991
X2.151 Y-6.039
X1.919 Y-6.246
X1.824 Y-6.324
X1.777 Y-6.358
X1.624 Y-6.466
X1.492 Y-6.559
X1.416 Y-6.609
X1.35 Y-6.647
X1.065 Y-6.803
X0.994 Y-6.84
X0.922 Y-6.873
X0.873 Y-6.893
X0.638 Y-6.991
X0.524 Y-7.036
X0.495 Y-7.046
X0.353 Y-7.088
X0.21 Y-7.129
X0.068 Y-7.17
X0.034 Y-7.178
X-0.074 Y-7.2
X-0.359 Y-7.248
X-0.502 Y-7.269
X-0.644 Y-7.279
X-0.786 Y-7.287
X-0.929 Y-7.295
X-1. Y-7.296
X-1.071 Y-7.295
X-1.214 Y-7.287
X-1.356 Y-7.279
X-1.498 Y-7.269
X-1.641 Y-7.248
X-1.926 Y-7.2
X-2.034 Y-7.178
X-2.068 Y-7.17
X-2.21 Y-7.129
X-2.353 Y-7.088
X-2.495 Y-7.046
X-2.524 Y-7.036
X-2.638 Y-6.991
X-2.873 Y-6.893
X-2.922 Y-6.873
X-2.994 Y-6.84
X-3.065 Y-6.803
X-3.35 Y-6.647
X-3.416 Y-6.609
X-3.492 Y-6.559
X-3.624 Y-6.466
X-3.777 Y-6.358
X-3.824 Y-6.324
X-3.919 Y-6.246
X-4.151 Y-6.039
X-4.204 Y-5.991
X-4.297 Y-5.897
X-4.489 Y-5.683
X-4.552 Y-5.612
X-4.631 Y-5.51
X-4.66 Y-5.469
X-4.774 Y-5.31
X-4.862 Y-5.185
X-4.916 Y-5.096
X-4.946 Y-5.042
X-5.058 Y-4.84
X-5.104 Y-4.757
X-5.139 Y-4.686
X-5.17 Y-4.615
X-5.289 Y-4.33
X-5.317 Y-4.259
X-5.342 Y-4.188
X-5.343 Y-4.184
X-5.384 Y-4.045
X-5.425 Y-3.903
X-5.465 Y-3.761
X-5.486 Y-3.664
X-5.493 Y-3.618
X-5.543 Y-3.333
X-5.568 Y-3.191
X-5.583 Y-3.106
X-5.584 Y-3.104
X-5.623 Y-2.978
Y-2.976
X-5.678 Y-2.855
X-5.679 Y-2.853
X-5.747 Y-2.74
X-5.748 Y-2.738
X-5.83 Y-2.634
X-5.831 Y-2.632
X-5.924 Y-2.54
X-5.925 Y-2.538
X-6.03 Y-2.457
X-6.031 Y-2.455
X-6.144 Y-2.388
X-6.146 Y-2.386
X-6.268 Y-2.332
X-6.269
X-6.396 Y-2.293
X-6.398 Y-2.292
X-6.482 Y-2.277
X-6.625 Y-2.252
X-6.91 Y-2.202
X-6.955 Y-2.194
X-7.052 Y-2.174
X-7.194 Y-2.134
X-7.337 Y-2.093
X-7.475 Y-2.052
X-7.479 Y-2.051
X-7.55 Y-2.026
X-7.622 Y-1.998
X-7.906 Y-1.879
X-7.978 Y-1.848
X-8.049 Y-1.813
X-8.132 Y-1.767
X-8.334 Y-1.655
X-8.388 Y-1.625
X-8.476 Y-1.57
X-8.601 Y-1.482
X-8.761 Y-1.369
X-8.801 Y-1.34
X-8.903 Y-1.26
X-8.974 Y-1.197
X-9.188 Y-1.005
X-9.283 Y-0.913
X-9.33 Y-0.86
X-9.537 Y-0.628
X-9.615 Y-0.532
X-9.649 Y-0.485
X-9.757 Y-0.332
X-9.851 Y-0.201
X-9.9 Y-0.124
X-9.938 Y-0.058
X-10.095 Y0.227
X-10.132 Y0.298
X-10.164 Y0.369
X-10.185 Y0.418
X-10.282 Y0.654
X-10.327 Y0.768
X-10.337 Y0.796
X-10.38 Y0.939
X-10.42 Y1.081
X-10.461 Y1.223
X-10.469 Y1.258
X-10.491 Y1.366
X-10.54 Y1.65
X-10.56 Y1.793
X-10.57 Y1.935
X-10.578 Y2.078
X-10.586 Y2.22
X-10.587 Y2.291
X-10.586 Y2.362
X-10.578 Y2.505
X-10.57 Y2.647
X-10.56 Y2.79
X-10.54 Y2.932
X-10.491 Y3.217
X-10.469 Y3.325
X-10.461 Y3.359
X-10.42 Y3.502
X-10.38 Y3.644
X-10.337 Y3.786
X-10.327 Y3.815
X-10.282 Y3.929
X-10.185 Y4.164
X-10.164 Y4.214
X-10.132 Y4.285
X-10.095 Y4.356
X-9.938 Y4.641
X-9.9 Y4.707
X-9.851 Y4.783
X-9.757 Y4.915
X-9.649 Y5.068
X-9.615 Y5.115
X-9.537 Y5.21
